ncols         100
nrows         100
xllcorner     94.020000
yllcorner     25.620000
cellsize      0.00120000
NODATA_value  -9999
1721.39 1801.88 1873.88 1927.25 1968.27 2018.04 2062.96 2087.04 2096.98 2098.75 2111.30 2121.87 2123.30 2115.71 2096.15 2077.48 2068.96 2046.56 2012.28 1951.94 1888.84 1834.65 1797.95 1754.91 1708.81 1661.54 1624.55 1597.69 1578.23 1558.08 1543.73 1531.66 1546.54 1575.90 1609.19 1629.71 1639.23 1654.21 1678.30 1703.42 1709.71 1698.01 1677.37 1667.08 1659.59 1648.46 1627.44 1595.18 1565.74 1534.53 1496.95 1442.32 1368.03 1303.91 1252.05 1214.48 1179.94 1141.37 1088.87 1054.71 1022.36 1006.05 983.24 954.40 927.72 911.63 899.82 886.60 866.75 836.81 813.69 803.04 792.10 772.59 738.53 720.00 720.00 720.00 721.78 729.23 737.50 744.98 761.86 776.05 777.85 777.59 774.57 788.39 811.56 829.71 836.80 835.50 841.58 859.61 873.60 880.28 872.64 862.00 861.84 863.00
1693.52 1775.99 1843.04 1907.98 1958.39 2007.79 2044.44 2072.98 2092.33 2096.47 2111.88 2123.00 2132.62 2139.69 2148.29 2145.11 2134.78 2106.36 2064.81 2001.67 1937.78 1884.27 1836.09 1795.85 1752.32 1708.49 1670.01 1625.55 1593.10 1563.03 1541.94 1527.83 1534.02 1543.57 1557.57 1577.26 1599.65 1620.64 1641.39 1654.30 1647.04 1631.94 1613.46 1607.09 1598.00 1595.80 1590.12 1579.97 1563.00 1529.91 1485.77 1428.89 1367.19 1313.22 1266.57 1232.56 1194.47 1163.07 1126.15 1093.90 1067.38 1041.80 1020.16 980.94 953.57 922.15 905.57 887.32 871.23 858.06 843.61 831.35 808.17 778.22 747.71 727.54 721.16 722.20 734.75 750.32 764.45 769.51 771.91 775.23 768.71 765.21 759.16 760.19 771.17 793.57 809.64 822.02 840.64 864.12 870.72 873.67 870.02 856.37 850.11 849.53
1667.14 1737.28 1807.42 1881.62 1936.54 1986.98 2018.26 2045.74 2072.58 2094.30 2110.54 2116.32 2138.04 2163.70 2189.39 2200.99 2182.89 2147.19 2095.94 2044.48 1993.21 1938.60 1883.24 1832.46 1797.67 1764.02 1730.54 1682.48 1629.43 1594.45 1567.28 1551.77 1537.75 1527.86 1523.14 1539.02 1559.06 1582.61 1585.62 1581.17 1571.09 1564.67 1551.75 1542.25 1543.65 1536.10 1545.40 1558.53 1550.33 1507.64 1463.06 1416.40 1375.77 1326.78 1284.60 1243.83 1207.72 1182.17 1165.51 1141.30 1114.00 1078.24 1044.73 1010.52 979.57 944.29 908.21 886.96 879.58 879.18 869.66 850.17 817.99 794.34 772.54 756.50 744.87 740.82 753.09 766.46 783.17 783.37 782.14 766.43 751.25 748.08 747.34 742.73 740.41 751.18 776.88 812.42 845.21 850.89 860.38 860.00 857.71 851.10 839.75 839.17
1643.42 1693.37 1770.79 1844.16 1910.04 1953.33 1987.57 2022.35 2053.27 2084.97 2103.79 2119.21 2148.03 2181.00 2215.41 2223.87 2205.90 2164.69 2125.52 2079.83 2042.28 1988.80 1936.46 1886.75 1854.24 1822.72 1781.39 1738.02 1685.22 1645.85 1620.92 1591.09 1555.80 1524.71 1512.42 1515.77 1534.35 1546.10 1539.94 1519.53 1496.18 1495.44 1491.29 1486.09 1483.45 1477.68 1495.43 1511.13 1500.73 1480.54 1437.83 1402.11 1369.07 1342.40 1304.51 1259.94 1226.81 1210.42 1199.81 1186.44 1155.30 1115.25 1076.34 1035.39 1001.05 963.59 918.76 894.36 891.99 896.24 886.42 864.47 830.40 805.53 793.76 793.51 779.88 766.60 774.45 779.83 794.70 799.88 778.49 758.02 741.44 736.59 734.24 724.87 720.00 722.21 751.33 799.24 830.81 846.07 845.39 841.44 844.85 844.85 841.08 831.80
1614.69 1669.51 1735.07 1800.64 1865.50 1913.43 1953.10 1990.80 2018.96 2054.78 2085.68 2114.23 2151.75 2189.74 2213.51 2222.45 2210.68 2182.36 2145.14 2114.68 2074.54 2028.93 1982.49 1936.77 1902.85 1873.83 1843.92 1806.66 1755.06 1716.36 1671.82 1634.42 1590.88 1549.10 1530.81 1516.14 1512.27 1502.22 1484.50 1463.17 1441.58 1431.77 1427.57 1428.32 1424.70 1427.11 1443.11 1447.30 1448.58 1432.02 1408.84 1387.95 1371.14 1347.72 1313.14 1282.02 1259.54 1240.45 1233.89 1217.30 1189.39 1146.71 1100.96 1056.58 1016.87 977.81 943.14 924.95 910.89 898.13 888.69 866.04 843.70 828.89 822.95 817.18 814.82 800.85 797.75 803.83 799.23 797.89 780.91 762.93 742.98 728.10 720.00 720.00 720.00 720.00 748.06 780.83 806.83 822.30 823.39 827.31 823.72 831.62 829.30 830.96
1597.97 1649.82 1698.73 1749.84 1800.90 1862.01 1920.19 1958.21 1993.12 2034.07 2072.62 2121.34 2161.04 2185.42 2198.51 2199.08 2195.70 2181.03 2163.84 2135.33 2094.26 2060.55 2033.52 1995.89 1963.80 1923.63 1896.71 1864.32 1831.64 1792.01 1735.36 1680.93 1636.08 1600.92 1562.75 1534.76 1497.80 1470.78 1435.49 1416.55 1393.05 1377.36 1370.10 1369.16 1375.29 1380.71 1381.41 1375.06 1378.09 1380.18 1380.39 1374.15 1357.98 1342.94 1320.51 1306.64 1292.72 1276.15 1256.22 1235.24 1211.65 1179.15 1134.80 1083.07 1040.54 1003.49 974.27 949.66 928.08 902.69 879.41 871.75 866.79 858.34 853.65 842.21 844.05 839.26 827.43 815.67 793.26 783.14 774.55 759.70 744.95 725.01 720.00 720.00 720.00 724.61 735.27 755.69 776.36 784.40 799.11 809.42 813.16 821.17 828.20 832.81
1576.80 1624.47 1671.01 1704.45 1750.00 1809.81 1870.50 1922.53 1961.88 2013.02 2061.83 2118.00 2151.80 2171.06 2166.62 2163.59 2173.33 2176.07 2164.98 2146.01 2111.85 2088.75 2069.77 2043.45 2012.17 1971.79 1940.89 1922.36 1890.70 1846.83 1801.94 1747.71 1693.68 1651.07 1611.77 1556.21 1495.38 1441.40 1411.17 1388.13 1361.39 1344.23 1331.67 1324.03 1327.89 1329.37 1322.33 1305.60 1310.77 1324.41 1348.31 1350.34 1348.01 1330.71 1331.99 1334.22 1327.98 1312.40 1285.69 1252.14 1222.98 1198.58 1156.51 1108.81 1063.50 1026.41 1003.00 981.53 942.91 900.73 886.20 882.00 886.95 888.25 886.42 874.80 874.21 866.16 855.40 830.63 804.15 781.49 771.39 757.12 739.12 720.00 720.00 720.00 720.00 724.12 730.61 728.27 737.09 747.29 774.15 791.26 795.54 805.98 818.95 835.30
1558.34 1597.24 1629.15 1662.50 1704.54 1752.86 1815.63 1881.89 1938.40 1997.26 2051.57 2101.92 2128.33 2140.62 2137.93 2135.35 2142.56 2157.87 2155.84 2142.44 2127.52 2115.63 2094.12 2077.86 2051.36 2024.05 1990.90 1967.34 1936.30 1900.07 1857.14 1806.24 1760.38 1710.67 1653.78 1581.83 1507.39 1442.55 1391.23 1360.00 1344.20 1321.75 1297.54 1284.78 1284.16 1278.56 1268.56 1255.96 1257.32 1274.58 1301.07 1318.51 1325.92 1340.32 1350.03 1358.77 1352.94 1338.62 1305.69 1270.38 1241.85 1211.19 1177.45 1137.83 1098.73 1061.04 1036.13 1000.05 957.21 926.54 904.72 902.13 908.72 917.95 911.92 904.53 893.97 889.48 872.24 840.68 809.98 781.06 766.68 750.51 732.82 720.00 720.00 720.00 720.00 721.59 720.00 720.00 720.00 721.65 741.29 769.48 789.82 803.97 818.12 827.42
1530.97 1560.32 1593.27 1625.11 1664.97 1711.61 1767.55 1834.28 1910.05 1979.14 2031.75 2067.16 2090.68 2100.68 2107.70 2115.97 2120.30 2128.80 2135.95 2137.60 2139.81 2138.83 2120.54 2101.85 2082.60 2063.44 2035.10 2003.10 1974.12 1933.06 1908.61 1873.51 1817.43 1756.39 1681.37 1601.58 1525.08 1459.33 1402.74 1354.42 1330.45 1304.59 1289.98 1265.03 1244.54 1227.39 1224.09 1216.98 1220.17 1238.68 1256.39 1283.05 1316.69 1342.75 1364.05 1372.34 1368.74 1351.68 1317.69 1289.06 1247.99 1213.14 1188.31 1163.40 1133.83 1103.29 1056.86 1016.26 977.36 949.57 932.34 921.51 926.39 929.81 929.60 928.73 924.35 905.92 881.68 853.01 822.10 791.57 756.80 734.40 722.87 724.11 728.63 724.67 720.00 720.00 720.00 720.00 720.00 720.00 720.00 744.15 768.57 791.74 809.18 808.81
1508.79 1526.99 1553.33 1593.17 1626.90 1676.73 1725.54 1794.23 1878.40 1947.72 1997.40 2026.47 2043.42 2058.58 2081.73 2094.77 2099.34 2100.16 2114.17 2126.36 2147.62 2149.74 2141.93 2125.15 2112.50 2101.55 2070.20 2035.14 1996.86 1970.51 1949.57 1920.74 1869.48 1795.01 1706.90 1626.94 1548.98 1481.11 1416.20 1359.35 1319.29 1297.70 1275.89 1249.38 1214.51 1188.61 1182.92 1180.49 1197.80 1196.94 1218.94 1258.26 1305.79 1346.88 1374.93 1385.06 1371.25 1362.84 1335.87 1305.39 1268.97 1228.56 1201.09 1187.74 1167.52 1127.95 1082.13 1034.76 1006.91 985.64 969.60 954.04 943.42 944.50 949.45 954.35 949.10 919.35 885.53 861.31 833.15 795.00 763.11 736.69 727.40 736.16 739.91 739.03 720.00 720.00 720.00 720.00 720.00 720.00 720.00 720.00 750.85 779.78 794.58 797.12
1480.07 1493.34 1519.46 1558.54 1598.50 1643.97 1698.27 1762.84 1840.26 1905.28 1946.21 1979.00 1994.41 2015.60 2042.27 2059.44 2069.03 2074.38 2091.02 2121.11 2146.77 2158.95 2155.67 2145.32 2127.07 2116.85 2087.92 2059.47 2025.37 2002.55 1981.84 1947.04 1888.81 1813.09 1725.63 1648.39 1579.74 1505.58 1437.57 1372.56 1319.84 1291.62 1262.89 1229.23 1193.33 1169.06 1162.78 1171.04 1176.06 1189.58 1205.46 1246.84 1300.68 1356.14 1375.60 1387.83 1375.31 1362.25 1343.95 1318.50 1282.53 1252.99 1224.36 1211.94 1186.32 1152.53 1104.99 1068.18 1044.05 1024.00 1007.09 983.57 967.30 957.63 964.20 970.09 961.26 937.91 896.46 871.04 839.27 806.11 773.63 747.55 740.36 745.45 747.04 734.88 720.00 720.00 720.00 720.00 720.00 720.00 720.00 720.00 728.18 755.54 774.19 780.31
1453.74 1471.99 1496.84 1530.22 1568.61 1622.89 1672.94 1732.29 1794.32 1844.49 1889.47 1921.10 1950.01 1980.09 2005.05 2024.67 2044.10 2058.23 2082.43 2105.60 2134.98 2152.68 2158.79 2157.13 2145.52 2127.22 2109.94 2080.56 2054.49 2022.23 1991.73 1948.76 1889.54 1825.22 1746.31 1674.68 1598.30 1526.63 1456.65 1391.51 1338.01 1279.47 1240.57 1211.81 1187.68 1171.55 1161.72 1158.87 1170.43 1188.61 1216.38 1258.86 1302.35 1340.74 1371.29 1380.99 1378.00 1369.78 1342.57 1324.04 1300.87 1277.88 1252.73 1223.36 1196.30 1165.92 1143.20 1113.13 1083.01 1061.01 1037.30 1014.07 1000.30 985.46 979.86 968.23 956.95 937.51 909.19 876.79 839.93 815.92 788.02 775.20 763.63 752.50 744.14 728.51 720.00 720.00 720.00 720.00 720.00 720.00 720.00 720.00 720.00 720.00 745.80 756.12
1417.47 1448.46 1478.08 1507.62 1548.00 1600.70 1655.00 1700.36 1744.63 1775.35 1819.74 1864.27 1907.94 1937.42 1954.81 1981.45 2010.40 2041.98 2072.65 2100.55 2117.01 2141.87 2158.14 2165.10 2150.58 2134.15 2115.60 2097.30 2081.08 2047.34 1994.07 1933.68 1875.36 1822.04 1761.21 1687.49 1613.14 1541.25 1475.27 1414.90 1350.24 1282.29 1238.49 1201.50 1189.85 1177.44 1166.03 1157.23 1171.21 1196.43 1242.21 1281.30 1305.25 1332.33 1352.49 1371.30 1381.88 1372.24 1360.22 1338.52 1329.03 1309.97 1283.96 1243.91 1209.53 1184.82 1167.76 1155.35 1130.72 1100.26 1075.54 1056.17 1036.12 1018.97 992.69 971.35 952.18 942.00 916.77 883.90 853.96 820.93 808.62 806.55 788.19 762.29 730.06 720.00 720.00 720.00 720.00 720.00 720.00 720.00 720.00 720.00 720.00 720.00 720.00 734.52
1391.73 1423.17 1463.40 1496.70 1534.54 1577.31 1627.12 1666.15 1679.10 1711.60 1750.72 1808.17 1853.73 1892.52 1920.49 1955.29 1991.30 2035.36 2062.85 2088.84 2099.37 2119.94 2143.18 2151.69 2152.37 2140.01 2124.36 2107.60 2090.07 2049.97 1981.39 1916.53 1863.74 1813.52 1761.87 1700.61 1622.82 1550.87 1491.22 1421.73 1353.88 1289.69 1235.00 1200.94 1187.90 1191.49 1181.03 1177.94 1198.14 1230.09 1269.99 1302.03 1312.88 1327.48 1347.52 1364.73 1377.18 1377.27 1367.62 1357.52 1348.79 1337.58 1302.03 1268.75 1229.91 1211.84 1200.35 1196.07 1172.35 1139.27 1104.35 1090.80 1072.39 1041.22 1009.24 974.95 950.87 934.45 917.85 896.33 869.38 841.25 839.21 828.96 799.55 764.79 729.11 720.00 720.00 720.00 720.00 720.00 720.00 720.00 720.00 720.00 720.00 720.00 720.00 720.00
1369.35 1404.51 1445.94 1485.21 1523.73 1563.33 1592.97 1617.36 1635.95 1662.83 1697.31 1750.14 1788.91 1840.91 1883.72 1922.57 1977.12 2017.79 2051.55 2071.68 2087.42 2103.81 2122.77 2139.72 2143.77 2140.01 2135.90 2118.15 2084.74 2034.65 1969.05 1902.47 1844.65 1791.87 1745.62 1687.07 1621.25 1547.48 1485.40 1425.91 1356.20 1297.12 1242.29 1216.33 1196.76 1194.82 1205.62 1218.38 1238.92 1270.07 1300.32 1321.41 1327.89 1331.71 1345.63 1357.11 1379.25 1384.09 1390.84 1383.28 1374.66 1352.07 1324.28 1295.50 1268.57 1247.23 1231.80 1218.53 1198.65 1172.63 1151.62 1129.77 1100.00 1060.07 1024.20 983.63 956.78 925.71 912.89 905.02 889.80 878.88 864.31 843.00 810.31 764.99 731.11 720.00 720.00 720.00 720.00 720.00 720.00 720.00 720.00 720.00 720.00 720.00 720.00 720.00
1346.99 1382.35 1432.86 1476.72 1511.58 1535.83 1544.21 1566.33 1595.27 1619.36 1649.88 1685.51 1730.00 1777.86 1839.98 1902.76 1948.91 1993.26 2022.75 2047.41 2070.63 2080.73 2097.66 2111.57 2128.29 2144.13 2139.16 2107.40 2055.80 2007.64 1950.96 1893.03 1835.30 1770.13 1721.76 1662.39 1614.12 1548.51 1483.09 1420.74 1355.23 1307.93 1265.49 1231.58 1214.33 1208.65 1224.21 1259.26 1295.18 1317.86 1326.03 1336.11 1342.98 1348.67 1350.04 1357.93 1370.08 1391.62 1406.62 1406.38 1392.20 1370.58 1345.17 1325.32 1307.83 1287.56 1263.11 1246.22 1232.80 1213.14 1196.30 1163.62 1124.67 1081.24 1036.28 996.42 961.30 932.93 907.93 911.37 914.80 903.81 882.06 843.24 806.12 767.37 734.81 720.00 720.00 720.00 720.00 720.00 720.00 720.00 720.00 720.00 720.00 720.00 720.00 720.00
1338.98 1371.86 1414.98 1453.06 1487.36 1505.24 1509.72 1523.11 1547.85 1576.76 1604.04 1629.45 1671.22 1733.79 1805.66 1875.76 1931.43 1956.12 1994.62 2025.03 2055.08 2068.89 2079.47 2093.94 2112.27 2130.47 2115.08 2089.44 2032.95 1979.75 1923.91 1873.02 1814.15 1746.11 1684.58 1636.40 1584.69 1539.87 1474.40 1408.72 1351.42 1316.98 1278.42 1257.80 1233.52 1240.57 1269.33 1314.54 1344.94 1357.92 1359.02 1363.84 1368.01 1372.21 1373.67 1369.51 1381.52 1394.58 1420.55 1425.03 1418.22 1388.44 1374.54 1369.92 1356.34 1328.09 1299.37 1273.42 1261.54 1251.27 1233.81 1192.02 1146.40 1098.48 1055.06 1012.72 979.54 943.37 922.05 922.71 924.03 915.63 885.90 847.89 805.12 780.51 753.30 726.79 720.00 720.00 720.00 720.00 720.00 720.00 720.00 720.00 720.00 720.00 720.00 720.00
1333.84 1360.73 1394.35 1420.91 1451.65 1469.11 1472.30 1488.10 1511.46 1532.84 1555.95 1580.96 1632.57 1693.76 1764.58 1835.25 1886.52 1926.86 1964.69 1993.23 2027.96 2042.53 2059.23 2080.34 2093.25 2097.29 2082.06 2048.42 2001.59 1950.72 1900.82 1847.41 1784.30 1712.90 1651.22 1601.76 1550.64 1506.93 1453.26 1403.08 1357.46 1329.40 1303.13 1281.59 1280.76 1289.60 1320.60 1359.70 1385.08 1398.93 1393.56 1392.07 1394.64 1398.75 1403.35 1400.84 1407.07 1419.92 1425.41 1434.71 1427.18 1417.84 1408.89 1399.69 1386.12 1364.67 1332.61 1312.83 1292.76 1288.95 1257.70 1219.60 1165.74 1122.56 1076.49 1034.91 994.22 967.31 944.46 942.57 934.32 915.69 878.56 845.01 816.24 792.01 768.00 733.69 720.00 720.00 720.00 720.00 720.00 720.00 720.00 720.00 720.00 720.00 720.00 720.00
1336.02 1359.25 1374.76 1389.39 1406.56 1419.58 1443.48 1457.47 1471.11 1490.66 1510.43 1549.97 1606.06 1662.84 1724.11 1783.44 1843.42 1893.49 1932.12 1962.39 1986.60 2021.68 2047.39 2061.65 2060.43 2053.90 2034.13 2008.24 1966.69 1923.34 1871.48 1809.22 1743.51 1684.92 1624.37 1565.12 1512.99 1467.02 1433.59 1393.88 1363.09 1337.72 1323.67 1316.86 1331.11 1351.75 1380.84 1398.80 1416.97 1431.09 1433.88 1436.66 1432.67 1432.77 1432.62 1431.99 1435.10 1438.62 1438.15 1437.96 1449.72 1449.59 1452.32 1438.53 1417.67 1396.71 1375.76 1357.37 1331.20 1304.94 1274.24 1233.33 1190.11 1141.00 1093.63 1050.18 1024.79 1003.66 981.28 950.08 929.78 905.27 876.03 853.53 822.71 800.68 769.66 747.99 722.72 720.00 720.00 720.00 720.00 720.00 720.00 720.00 720.00 720.00 720.00 720.00
1330.40 1352.46 1356.31 1354.73 1365.17 1381.69 1409.11 1426.22 1434.26 1451.58 1481.09 1533.44 1587.24 1627.17 1682.86 1722.92 1787.34 1849.16 1892.46 1924.04 1955.62 1993.96 2016.41 2037.49 2025.04 1997.45 1973.21 1951.06 1931.15 1890.42 1826.03 1763.56 1700.84 1650.52 1587.28 1533.65 1471.37 1424.81 1400.26 1384.00 1366.85 1354.99 1347.97 1361.49 1395.68 1419.69 1436.68 1440.72 1446.93 1467.55 1477.05 1482.67 1472.08 1467.47 1468.79 1469.59 1474.01 1459.93 1452.56 1452.72 1467.78 1479.42 1480.43 1464.72 1442.40 1429.92 1418.14 1399.35 1365.75 1325.67 1280.91 1245.09 1211.72 1174.85 1121.12 1085.05 1049.28 1032.79 1008.98 967.14 922.92 887.40 870.29 857.33 837.12 809.63 781.16 757.82 744.89 729.40 720.00 720.00 720.00 720.00 720.00 720.00 720.00 720.00 720.00 720.00
1319.02 1329.99 1331.93 1326.73 1326.52 1349.88 1369.57 1385.89 1406.93 1427.68 1460.71 1518.16 1564.64 1603.18 1642.61 1681.13 1734.68 1792.35 1848.74 1891.38 1926.84 1958.53 1986.21 1992.36 1973.62 1944.82 1922.68 1893.65 1876.92 1836.58 1785.29 1717.79 1661.60 1605.36 1551.93 1494.41 1435.41 1398.63 1374.28 1373.18 1376.20 1380.98 1399.63 1421.83 1454.54 1480.33 1492.11 1489.02 1489.17 1497.92 1518.59 1522.17 1525.58 1522.90 1513.14 1512.87 1504.91 1488.98 1479.24 1475.75 1484.90 1504.83 1502.78 1492.04 1475.44 1464.89 1457.42 1433.47 1395.51 1343.02 1294.69 1254.76 1222.65 1193.96 1157.09 1117.09 1089.33 1060.04 1016.80 971.16 924.53 887.65 864.89 857.92 845.19 821.16 794.68 776.96 765.69 753.63 727.84 720.00 720.00 720.00 720.00 720.00 720.00 720.00 720.00 720.00
1301.96 1300.62 1302.70 1305.49 1304.88 1311.79 1330.87 1346.43 1376.22 1414.66 1455.36 1496.38 1535.25 1567.69 1601.96 1637.84 1684.23 1737.64 1794.79 1850.21 1894.29 1923.32 1934.86 1934.88 1920.14 1898.66 1877.90 1842.53 1812.05 1774.36 1725.54 1679.16 1617.27 1562.94 1504.77 1453.61 1409.91 1378.35 1360.47 1364.62 1379.97 1410.69 1455.66 1485.90 1511.23 1528.10 1534.11 1540.23 1539.02 1546.23 1554.95 1565.82 1566.74 1565.23 1562.04 1552.67 1539.87 1525.30 1519.82 1510.93 1510.01 1510.02 1517.37 1516.30 1513.65 1506.60 1492.24 1450.57 1411.39 1363.64 1315.52 1273.66 1242.49 1213.05 1191.06 1160.87 1125.52 1081.38 1031.79 978.66 939.13 897.90 866.44 850.43 834.86 827.09 814.62 800.65 791.09 766.99 741.40 720.00 720.00 720.00 720.00 720.00 720.00 720.00 720.00 720.00
1276.62 1275.31 1278.20 1284.37 1287.14 1282.72 1289.14 1316.64 1359.99 1405.17 1447.52 1476.27 1502.25 1533.66 1562.59 1601.46 1639.03 1683.27 1737.52 1795.54 1848.47 1871.86 1877.11 1866.96 1856.28 1846.15 1821.28 1784.18 1743.99 1698.66 1663.58 1620.97 1571.09 1520.73 1459.65 1416.31 1388.09 1365.99 1352.54 1361.92 1399.27 1446.79 1498.97 1543.03 1561.59 1569.03 1576.74 1589.38 1596.83 1599.41 1593.40 1601.97 1614.85 1612.85 1613.67 1589.99 1576.00 1565.58 1561.84 1551.16 1529.56 1522.60 1526.12 1536.55 1545.98 1537.46 1508.49 1467.42 1423.00 1386.49 1346.20 1298.71 1265.56 1240.78 1220.36 1187.07 1148.93 1099.93 1035.92 984.21 953.73 914.84 882.04 851.27 837.55 836.11 836.99 830.60 804.87 770.96 749.34 723.71 720.00 720.00 720.00 720.00 720.00 720.00 720.00 720.00
1251.43 1247.84 1246.24 1258.11 1261.87 1258.22 1271.93 1295.82 1346.35 1393.17 1430.22 1449.68 1470.60 1494.10 1530.31 1565.90 1598.26 1638.48 1692.33 1741.00 1787.59 1811.87 1812.89 1803.02 1790.08 1785.98 1752.92 1719.06 1667.15 1628.81 1594.05 1561.91 1524.48 1472.12 1422.79 1390.75 1379.11 1365.49 1366.85 1385.28 1430.40 1486.76 1539.82 1582.71 1603.51 1610.24 1626.95 1641.87 1655.60 1650.77 1644.80 1646.89 1655.49 1663.12 1653.07 1632.08 1618.81 1607.14 1600.32 1586.50 1565.63 1543.22 1544.56 1559.00 1572.22 1557.63 1523.93 1479.18 1440.53 1411.24 1370.18 1331.22 1293.04 1269.04 1242.59 1208.71 1169.90 1107.44 1051.42 1005.31 968.17 933.52 887.47 856.75 844.80 843.66 845.33 841.90 818.18 784.09 750.42 729.55 720.00 720.00 720.00 720.00 720.00 720.00 720.00 720.00
1224.58 1230.73 1230.64 1230.24 1232.97 1238.52 1260.74 1289.37 1323.49 1366.85 1396.52 1424.72 1436.16 1460.61 1496.71 1530.60 1560.07 1596.99 1639.30 1670.82 1704.41 1729.19 1742.53 1737.11 1730.36 1715.23 1687.84 1641.24 1599.94 1566.45 1526.21 1502.33 1463.52 1429.59 1395.17 1370.14 1360.81 1369.02 1390.24 1421.79 1469.81 1524.79 1570.66 1613.33 1640.41 1665.36 1676.06 1690.73 1701.75 1702.13 1695.50 1694.58 1698.99 1696.92 1693.56 1683.32 1669.59 1647.92 1625.98 1605.64 1588.36 1575.52 1574.61 1573.10 1570.99 1555.39 1528.39 1498.78 1463.42 1430.12 1396.97 1363.00 1329.90 1296.35 1258.02 1221.37 1170.15 1124.85 1075.90 1027.27 990.22 942.93 908.21 878.65 862.59 857.51 855.05 846.54 826.61 794.14 764.57 729.70 720.00 720.00 720.00 720.00 720.00 720.00 720.00 720.00
1196.77 1205.96 1209.13 1206.85 1216.17 1236.22 1266.78 1292.13 1316.93 1335.82 1360.24 1394.07 1416.75 1440.77 1461.77 1488.81 1525.72 1564.47 1589.73 1603.25 1624.04 1648.52 1661.52 1664.06 1661.77 1632.35 1598.54 1566.81 1539.67 1501.38 1468.48 1432.91 1406.58 1388.83 1374.55 1367.83 1363.62 1380.73 1424.31 1472.09 1517.57 1556.78 1591.78 1633.72 1671.46 1703.36 1724.50 1740.78 1738.14 1750.24 1748.47 1749.34 1739.95 1727.76 1730.12 1724.63 1708.72 1692.93 1665.97 1642.96 1627.27 1619.14 1611.87 1595.47 1573.61 1549.51 1534.50 1513.26 1479.05 1452.81 1427.58 1396.37 1367.59 1323.33 1272.68 1223.24 1176.31 1137.46 1102.52 1055.66 1000.27 962.70 930.00 910.40 892.58 875.10 855.20 843.65 825.13 802.96 767.80 742.18 720.00 720.00 720.00 720.00 720.00 720.00 720.00 720.00
1159.21 1179.28 1181.56 1186.61 1204.69 1229.73 1262.99 1287.46 1299.44 1302.42 1321.51 1359.26 1387.81 1412.62 1428.66 1455.96 1488.78 1519.88 1531.75 1542.51 1542.01 1557.13 1582.05 1586.73 1571.68 1544.41 1519.34 1497.67 1470.83 1442.66 1404.42 1367.25 1351.63 1350.86 1360.58 1369.63 1381.97 1415.02 1466.23 1515.06 1558.56 1585.01 1610.92 1650.36 1704.07 1741.51 1770.32 1775.37 1785.50 1802.19 1802.07 1796.45 1789.48 1768.79 1763.82 1760.10 1752.32 1725.50 1697.65 1677.19 1663.45 1655.73 1636.38 1600.38 1568.87 1547.99 1535.78 1524.68 1503.94 1473.30 1448.49 1424.92 1388.75 1344.55 1284.00 1228.97 1189.28 1154.83 1114.70 1074.99 1027.35 983.90 962.76 941.46 916.48 888.59 852.01 833.48 822.70 797.47 773.30 746.13 730.15 722.97 722.91 720.00 720.00 720.00 720.00 720.00
1125.42 1136.88 1158.55 1178.75 1202.26 1232.10 1260.29 1266.69 1278.52 1281.79 1297.36 1326.89 1356.86 1382.33 1407.87 1429.78 1450.61 1466.48 1475.11 1469.09 1472.26 1481.21 1482.46 1489.34 1477.16 1458.61 1437.54 1422.41 1408.73 1374.77 1343.40 1316.81 1314.58 1318.58 1343.06 1373.36 1409.80 1456.86 1513.17 1555.97 1585.08 1615.24 1639.72 1675.18 1727.21 1769.32 1799.07 1814.20 1829.11 1844.02 1850.44 1844.89 1827.79 1814.91 1803.82 1788.12 1780.41 1761.57 1741.96 1724.51 1705.56 1683.56 1655.06 1618.31 1576.68 1550.99 1535.98 1536.81 1521.17 1500.08 1474.67 1443.60 1403.42 1354.25 1296.83 1250.31 1201.15 1163.36 1131.34 1089.31 1056.73 1019.02 997.72 975.94 943.41 903.35 863.46 832.45 810.92 796.22 786.09 767.76 755.67 749.46 744.51 728.17 720.00 720.00 720.00 734.92
1088.58 1106.95 1136.20 1168.68 1203.29 1229.78 1247.30 1245.82 1258.03 1262.50 1276.59 1295.48 1321.08 1351.60 1381.85 1400.12 1405.85 1411.90 1410.56 1410.16 1402.14 1400.75 1392.87 1380.94 1379.32 1375.65 1372.70 1357.47 1327.45 1316.33 1290.48 1285.17 1285.80 1297.12 1336.17 1386.62 1447.33 1501.10 1547.17 1578.74 1609.33 1645.04 1677.97 1712.76 1743.82 1778.74 1816.40 1848.95 1875.83 1887.98 1887.26 1887.31 1878.39 1860.84 1837.84 1822.39 1801.83 1792.83 1784.26 1769.01 1741.83 1710.96 1667.09 1638.02 1593.66 1565.34 1549.47 1539.75 1528.18 1517.93 1488.78 1454.62 1407.09 1356.00 1313.34 1260.68 1216.23 1173.80 1135.68 1110.58 1088.00 1066.04 1036.02 1000.70 957.75 917.26 877.02 838.65 808.24 792.31 787.26 791.48 787.13 774.32 758.20 743.48 743.62 744.46 751.62 770.79
1063.91 1077.04 1120.44 1163.30 1200.10 1217.67 1223.91 1225.76 1234.89 1253.93 1262.25 1277.90 1290.75 1313.73 1350.24 1371.32 1369.53 1360.01 1345.46 1347.63 1336.89 1321.53 1294.38 1280.79 1281.37 1294.16 1295.51 1281.03 1256.50 1245.06 1243.03 1255.84 1271.31 1296.21 1336.36 1396.15 1469.64 1536.42 1570.96 1598.36 1635.91 1674.21 1710.24 1740.15 1765.37 1796.08 1840.06 1880.54 1912.84 1926.28 1919.36 1919.94 1912.34 1894.62 1872.04 1847.02 1832.31 1827.07 1826.73 1816.84 1773.15 1728.26 1684.31 1647.34 1620.49 1586.65 1565.27 1540.08 1538.07 1525.09 1506.20 1463.31 1413.80 1366.39 1328.78 1288.79 1238.05 1189.87 1150.55 1138.09 1121.61 1107.11 1066.60 1019.57 967.73 928.08 890.47 854.15 816.51 801.68 801.52 813.72 810.84 804.07 779.62 771.65 777.23 797.94 801.59 802.87
1058.65 1074.91 1113.54 1146.18 1180.45 1193.79 1194.10 1208.62 1219.82 1238.71 1253.99 1254.69 1266.28 1287.71 1311.69 1319.75 1316.60 1308.60 1294.19 1276.43 1261.75 1243.13 1212.96 1193.47 1195.31 1205.47 1212.22 1200.61 1191.29 1192.09 1204.21 1230.71 1257.79 1301.45 1356.59 1421.78 1490.22 1547.54 1587.28 1622.21 1661.02 1697.90 1733.81 1763.55 1788.56 1815.84 1857.98 1902.39 1937.94 1955.99 1957.25 1948.96 1943.04 1932.87 1910.96 1885.33 1870.27 1863.33 1856.26 1836.75 1801.55 1750.89 1713.01 1673.89 1644.03 1613.61 1581.57 1555.37 1542.46 1521.00 1502.42 1464.57 1416.76 1381.40 1345.52 1301.24 1258.53 1209.41 1177.21 1165.39 1150.22 1127.33 1091.27 1037.76 986.49 945.15 901.04 864.28 835.31 819.71 819.13 820.97 827.00 816.02 814.89 809.02 826.86 834.63 846.64 843.08
1055.86 1077.31 1104.80 1129.26 1147.13 1164.52 1180.75 1192.36 1201.69 1215.74 1230.67 1244.21 1254.67 1260.45 1265.49 1270.37 1265.81 1258.56 1239.30 1212.77 1187.39 1159.23 1138.83 1125.09 1118.61 1119.05 1120.27 1126.27 1131.65 1149.02 1174.33 1207.70 1257.92 1313.12 1374.10 1433.06 1496.78 1550.49 1599.61 1649.37 1685.15 1729.17 1752.80 1783.81 1812.61 1847.38 1883.78 1916.78 1952.92 1972.01 1983.39 1979.95 1973.95 1959.11 1944.22 1931.12 1926.49 1902.27 1876.28 1848.46 1815.01 1778.60 1740.41 1703.95 1665.97 1635.57 1600.85 1570.71 1540.36 1511.59 1490.16 1461.45 1431.29 1393.46 1355.99 1309.62 1279.37 1246.71 1222.57 1199.33 1171.37 1139.46 1102.65 1059.85 1010.71 957.82 917.42 885.61 862.99 844.33 833.90 830.43 833.13 835.50 847.34 860.62 863.86 873.28 880.74 880.29
1066.14 1088.96 1094.50 1102.24 1111.01 1130.87 1159.33 1179.26 1192.26 1197.08 1211.53 1226.27 1236.34 1228.68 1224.48 1217.06 1211.10 1210.84 1191.46 1152.18 1115.70 1086.03 1067.46 1055.98 1046.94 1031.82 1030.15 1048.95 1079.81 1108.23 1147.79 1199.88 1255.03 1329.55 1390.87 1446.15 1493.87 1544.18 1604.10 1657.93 1710.26 1737.75 1768.32 1801.94 1842.43 1879.83 1905.97 1927.83 1957.66 1982.28 2004.75 2006.80 1994.77 1989.34 1980.58 1979.44 1964.60 1941.35 1895.36 1859.17 1831.44 1802.84 1774.38 1736.99 1689.86 1656.38 1617.53 1590.04 1548.04 1504.86 1477.08 1452.14 1432.61 1402.78 1359.99 1324.36 1303.32 1278.67 1262.34 1231.57 1195.50 1151.25 1110.66 1078.24 1029.96 986.86 939.23 917.36 896.73 879.43 862.20 847.63 844.81 864.07 884.84 904.34 908.76 907.91 911.41 920.53
1076.80 1090.49 1084.87 1078.18 1088.09 1103.94 1134.76 1160.50 1170.35 1181.36 1193.84 1210.24 1212.71 1203.53 1187.68 1171.77 1159.77 1146.20 1125.40 1087.39 1045.26 1024.43 1012.00 999.33 979.04 958.83 958.63 982.05 1024.27 1076.52 1130.44 1189.69 1254.14 1330.41 1395.35 1444.25 1488.20 1541.33 1599.89 1661.88 1716.01 1755.12 1789.71 1826.32 1864.86 1906.18 1931.92 1947.05 1965.19 1985.24 2010.66 2023.78 2025.24 2018.25 2019.47 2011.32 1999.59 1963.11 1915.23 1878.07 1851.16 1825.03 1802.97 1759.94 1719.07 1674.96 1642.61 1601.97 1555.45 1506.42 1468.33 1442.76 1426.02 1405.32 1376.74 1347.89 1333.99 1319.73 1296.47 1258.29 1207.58 1158.56 1124.16 1085.76 1051.99 1013.13 975.25 948.24 928.20 912.48 888.47 868.89 870.84 889.74 920.83 939.48 941.15 943.27 943.79 953.51
1078.06 1075.98 1064.02 1062.42 1059.86 1077.04 1106.92 1135.37 1154.27 1169.45 1175.81 1182.19 1185.12 1171.81 1150.34 1130.23 1106.42 1083.40 1054.18 1028.63 998.97 975.20 956.24 928.48 916.18 896.62 901.10 929.39 982.28 1043.55 1108.54 1189.02 1256.18 1324.16 1380.49 1438.52 1487.16 1543.40 1600.59 1664.56 1719.01 1763.08 1808.75 1851.72 1896.03 1925.18 1947.44 1965.88 1975.45 1993.02 2008.54 2033.50 2052.31 2059.03 2062.13 2045.56 2023.18 1983.29 1943.79 1908.95 1877.24 1847.35 1819.05 1784.01 1748.08 1708.28 1660.88 1604.86 1563.83 1515.60 1469.59 1442.59 1424.32 1406.40 1388.33 1381.81 1363.03 1349.58 1322.46 1275.64 1222.60 1175.89 1134.06 1101.44 1071.72 1044.97 1017.37 990.66 966.03 942.49 920.95 910.68 913.53 927.41 948.63 961.95 976.81 984.67 984.98 984.09
1071.60 1061.15 1051.76 1048.07 1056.69 1068.00 1076.99 1101.84 1131.49 1152.41 1167.43 1159.82 1151.45 1142.53 1122.10 1091.27 1054.77 1015.57 988.04 972.40 952.57 929.59 895.78 861.78 845.31 849.84 860.35 885.07 933.15 1006.69 1094.83 1173.99 1249.55 1307.33 1364.84 1421.37 1490.03 1545.14 1599.76 1646.64 1707.06 1771.79 1831.72 1881.35 1913.24 1937.14 1964.59 1981.92 1990.52 2003.54 2014.31 2037.17 2071.68 2084.96 2091.13 2067.32 2036.36 2006.60 1977.18 1941.07 1907.90 1869.24 1833.54 1807.04 1776.42 1730.86 1672.94 1612.75 1568.53 1527.02 1485.87 1447.55 1418.31 1406.25 1407.63 1406.87 1400.78 1370.85 1331.00 1282.40 1243.05 1200.82 1150.71 1112.65 1088.69 1077.63 1053.76 1032.10 999.32 974.75 963.54 965.26 967.66 964.95 967.13 987.51 1000.11 1015.57 1013.67 1006.15
1066.23 1052.24 1037.32 1049.31 1050.79 1053.68 1052.48 1078.85 1107.51 1133.15 1145.89 1135.47 1120.63 1104.24 1079.17 1051.83 1007.40 959.57 934.41 919.45 907.20 877.82 839.66 812.58 797.66 811.57 828.49 857.74 910.59 978.53 1064.75 1152.11 1220.40 1282.32 1342.37 1407.08 1479.41 1544.52 1592.03 1638.33 1700.37 1782.38 1848.11 1897.65 1928.77 1946.25 1974.46 1990.98 2010.44 2016.32 2032.58 2054.49 2087.79 2109.25 2107.12 2083.33 2052.45 2033.46 2004.51 1976.79 1934.87 1890.56 1851.11 1823.88 1790.24 1740.10 1685.31 1624.07 1573.73 1537.21 1497.09 1456.71 1427.87 1413.98 1423.96 1437.87 1415.46 1383.12 1334.84 1295.49 1256.70 1220.10 1175.53 1135.53 1110.17 1102.56 1088.09 1071.02 1048.20 1022.71 1013.14 1011.99 1005.27 998.26 999.23 1002.49 1023.19 1041.12 1035.99 1011.73
1054.94 1041.24 1037.19 1038.36 1043.12 1041.37 1045.40 1060.90 1081.05 1101.86 1113.83 1109.82 1091.98 1069.54 1037.61 999.96 962.10 922.77 893.95 872.60 850.67 824.40 793.98 770.78 762.38 778.73 802.28 840.33 888.87 953.14 1027.09 1110.57 1191.53 1253.72 1323.89 1393.09 1462.04 1530.26 1582.64 1642.82 1707.69 1782.95 1848.44 1906.26 1945.93 1961.34 1978.29 2004.31 2017.76 2038.37 2051.65 2072.37 2095.67 2111.79 2108.21 2093.38 2074.64 2052.19 2033.88 1997.18 1959.15 1916.72 1873.83 1837.88 1798.53 1756.10 1702.00 1645.54 1595.90 1550.47 1507.19 1470.97 1452.94 1444.97 1446.26 1436.63 1417.48 1387.05 1345.85 1303.58 1274.87 1234.73 1201.08 1174.04 1151.16 1128.37 1118.37 1104.47 1091.82 1071.99 1063.57 1062.76 1049.63 1041.65 1029.37 1035.54 1041.73 1049.25 1045.64 1019.11
1046.26 1044.27 1040.80 1035.50 1034.10 1028.50 1041.02 1052.16 1059.14 1067.75 1073.64 1071.95 1057.83 1029.78 995.32 952.79 921.83 892.73 864.27 824.31 793.38 767.32 747.21 738.77 738.81 750.75 780.56 821.24 873.69 927.54 989.27 1065.93 1138.36 1220.12 1305.70 1374.64 1441.34 1506.50 1578.09 1653.19 1721.69 1789.45 1847.96 1903.12 1941.88 1967.99 1995.45 2020.03 2035.40 2055.34 2081.84 2093.80 2098.46 2102.54 2105.15 2100.72 2096.17 2081.18 2051.67 2019.45 1978.83 1944.02 1894.77 1853.60 1797.33 1753.94 1713.50 1668.83 1613.83 1565.43 1526.23 1500.08 1487.04 1471.31 1452.60 1434.49 1407.33 1386.52 1354.25 1325.21 1288.77 1262.64 1234.40 1213.63 1184.93 1163.90 1144.09 1137.27 1134.92 1128.80 1115.56 1098.46 1081.85 1077.32 1078.24 1068.37 1060.29 1055.72 1034.46 1017.31
1040.36 1047.62 1038.16 1030.68 1022.15 1038.50 1038.64 1043.17 1037.02 1028.40 1033.55 1035.13 1015.54 983.94 942.95 913.72 888.32 862.18 827.66 781.04 738.08 720.00 720.00 720.00 722.52 736.65 762.47 799.92 851.42 903.31 952.10 1016.46 1093.58 1186.09 1272.22 1347.52 1419.13 1492.50 1577.13 1666.79 1735.99 1790.39 1836.43 1889.56 1941.36 1980.29 2011.94 2024.10 2052.11 2080.51 2102.41 2118.22 2105.96 2098.23 2102.90 2108.34 2113.94 2101.92 2066.18 2030.75 2004.19 1969.70 1921.59 1862.25 1806.19 1758.37 1719.71 1679.39 1633.30 1585.95 1551.67 1538.92 1525.62 1505.32 1462.64 1427.17 1400.35 1382.65 1368.17 1342.17 1309.62 1281.81 1264.31 1246.59 1226.18 1199.87 1178.57 1177.69 1184.60 1179.25 1168.08 1142.63 1127.83 1121.16 1120.87 1103.55 1080.54 1047.01 1022.98 1005.17
1029.62 1039.50 1037.94 1037.37 1033.21 1033.53 1038.48 1036.44 1018.51 1005.56 989.86 979.29 965.77 944.63 911.55 883.30 862.36 831.16 786.55 738.74 720.00 720.00 720.00 720.00 720.00 720.00 746.78 787.55 829.53 874.77 917.38 976.15 1052.88 1140.44 1227.09 1314.40 1402.50 1484.83 1575.89 1664.63 1735.98 1787.93 1832.65 1876.37 1929.20 1979.84 2018.78 2048.27 2076.64 2102.28 2120.79 2120.48 2113.34 2103.82 2109.29 2117.69 2121.45 2108.04 2081.36 2048.88 2019.01 1985.57 1934.06 1876.12 1819.44 1770.59 1728.31 1694.68 1658.17 1618.44 1596.70 1576.65 1553.14 1521.12 1468.12 1424.99 1390.48 1379.90 1368.21 1351.07 1333.83 1314.23 1298.62 1284.52 1269.71 1244.90 1225.48 1217.02 1221.43 1222.44 1214.58 1191.67 1175.07 1164.26 1155.43 1123.46 1090.31 1050.40 1018.72 997.69
1019.85 1022.42 1026.51 1040.01 1038.65 1040.43 1025.40 1021.72 1003.73 976.86 952.47 928.19 905.68 893.80 875.72 855.42 828.93 788.77 741.30 720.00 720.00 720.00 720.00 720.00 720.00 720.00 740.62 766.33 799.25 837.34 891.71 946.02 1016.59 1093.04 1178.86 1278.05 1386.30 1484.65 1574.25 1657.74 1724.09 1789.99 1831.92 1877.28 1929.76 1971.97 2026.92 2075.56 2101.94 2115.10 2123.95 2127.92 2123.09 2118.29 2116.89 2114.41 2111.99 2106.25 2091.36 2067.07 2029.98 1988.48 1944.98 1887.92 1836.89 1786.76 1738.90 1705.67 1684.59 1667.25 1646.53 1614.34 1572.35 1523.93 1476.77 1436.89 1406.33 1383.22 1363.44 1359.11 1357.78 1345.95 1329.41 1324.17 1304.30 1293.23 1282.09 1268.98 1257.53 1256.39 1247.91 1241.60 1230.14 1206.26 1181.78 1138.11 1098.40 1051.63 1013.96 992.08
1007.85 1003.55 1021.90 1043.73 1051.10 1039.55 1020.68 1000.62 979.16 948.85 915.56 881.19 857.81 846.86 841.71 827.94 791.13 743.31 720.00 720.00 720.00 720.00 720.00 720.00 720.00 720.00 723.58 750.39 768.24 809.49 862.83 922.46 981.20 1056.82 1143.98 1251.61 1369.88 1480.05 1568.88 1643.20 1707.62 1769.73 1828.24 1878.99 1926.82 1976.00 2032.96 2086.21 2117.69 2134.59 2129.16 2128.63 2135.80 2132.34 2126.91 2115.47 2095.51 2097.93 2095.68 2075.69 2043.45 1999.16 1947.35 1905.71 1855.93 1807.02 1760.04 1731.14 1718.51 1705.54 1680.50 1638.20 1587.02 1538.52 1492.80 1455.08 1423.19 1389.79 1371.33 1368.11 1380.26 1371.22 1369.41 1351.67 1342.33 1343.91 1331.39 1315.41 1295.89 1283.55 1280.34 1279.96 1271.41 1245.40 1196.38 1149.76 1105.76 1065.47 1031.70 991.23
1005.27 1007.80 1016.29 1035.50 1045.47 1034.31 1009.01 983.76 950.50 912.20 881.84 844.29 818.45 807.20 798.49 779.12 745.40 720.00 720.00 720.00 720.00 720.00 720.00 720.00 720.00 720.00 720.00 721.20 745.88 776.46 836.55 888.34 957.95 1028.24 1118.20 1227.59 1351.85 1460.94 1551.13 1623.03 1687.11 1764.81 1827.81 1882.97 1931.63 1984.09 2035.67 2083.09 2123.87 2137.73 2138.10 2138.46 2146.97 2142.74 2130.58 2109.73 2096.66 2088.03 2086.25 2079.77 2044.61 2000.76 1954.37 1913.72 1870.50 1836.42 1795.25 1765.26 1750.06 1738.36 1704.18 1658.27 1599.04 1554.23 1511.73 1469.73 1436.35 1406.94 1386.11 1382.53 1400.53 1403.59 1401.11 1389.86 1387.82 1382.71 1375.89 1360.79 1333.19 1326.61 1320.32 1321.94 1299.89 1261.81 1208.89 1161.13 1117.65 1077.72 1036.61 997.48
1008.96 1011.85 1019.71 1033.39 1029.89 1021.22 991.87 960.09 921.68 879.79 852.26 817.34 793.63 767.62 747.12 720.83 720.00 720.00 720.00 720.00 720.00 720.00 720.00 720.00 720.00 720.00 720.00 720.00 722.23 756.69 806.00 857.82 931.45 1013.68 1114.68 1219.67 1326.42 1433.07 1520.00 1603.29 1682.30 1748.28 1822.26 1883.47 1944.13 1993.57 2044.31 2083.54 2118.56 2137.15 2148.67 2156.00 2151.97 2147.35 2132.46 2119.48 2096.41 2085.89 2074.48 2060.83 2036.72 2002.72 1968.29 1926.78 1896.21 1864.17 1835.56 1810.16 1791.92 1753.83 1718.44 1669.95 1627.05 1577.35 1530.56 1495.32 1460.97 1431.79 1417.62 1411.02 1414.45 1421.94 1430.15 1432.48 1429.83 1420.94 1415.34 1394.46 1384.24 1370.26 1363.46 1339.75 1312.70 1272.79 1228.62 1175.21 1131.20 1084.92 1052.09 1014.07
1012.26 1028.35 1022.56 1019.37 1004.00 996.34 973.48 935.67 892.89 854.89 820.41 795.52 771.57 731.03 720.00 720.00 720.00 720.00 720.00 720.00 720.00 720.00 720.00 720.00 720.00 720.00 720.00 720.00 720.00 745.35 787.26 841.20 921.42 1007.84 1112.21 1209.57 1298.29 1394.82 1488.67 1588.61 1675.20 1747.96 1812.50 1884.65 1955.09 2008.32 2040.14 2078.63 2104.31 2132.55 2161.64 2165.70 2156.56 2142.26 2131.58 2121.27 2106.02 2086.78 2063.40 2036.28 2023.39 2001.14 1977.61 1944.30 1917.06 1895.84 1871.68 1855.99 1818.72 1769.98 1721.68 1686.36 1646.40 1605.68 1561.24 1516.82 1482.67 1460.02 1452.09 1444.20 1435.48 1443.01 1455.15 1470.53 1467.43 1458.06 1444.13 1438.38 1425.93 1418.02 1395.92 1360.59 1317.69 1279.46 1244.80 1201.77 1149.92 1104.75 1067.69 1035.22
1024.61 1032.78 1024.46 1004.22 979.34 961.57 938.63 914.37 868.09 829.91 799.81 777.83 738.34 720.00 720.00 720.00 720.00 720.00 720.00 720.00 720.00 720.00 720.00 720.00 720.00 720.00 720.00 720.00 720.00 720.00 767.15 830.43 915.73 1013.26 1113.72 1194.99 1268.84 1360.01 1460.51 1563.93 1664.13 1740.02 1817.71 1888.73 1957.72 2009.97 2046.79 2069.07 2097.89 2129.08 2154.46 2168.19 2156.49 2137.30 2127.37 2120.32 2105.70 2081.99 2047.02 2019.26 2003.20 1997.88 1986.89 1963.52 1951.87 1934.00 1920.70 1891.03 1845.52 1781.00 1725.77 1694.84 1667.80 1631.30 1587.98 1549.38 1519.45 1506.23 1491.03 1476.55 1470.91 1466.28 1476.72 1491.12 1494.90 1486.67 1475.29 1471.03 1471.62 1454.67 1421.80 1369.39 1321.90 1283.35 1254.09 1218.10 1172.30 1121.92 1082.71 1041.76
1026.75 1026.06 1008.75 987.29 958.21 930.54 905.47 877.31 846.11 816.91 782.77 743.47 720.00 720.00 720.00 720.00 720.00 720.00 720.00 720.00 720.00 720.00 720.00 720.00 720.00 720.00 720.00 720.00 720.00 720.00 767.12 843.49 936.41 1015.40 1105.56 1184.45 1258.56 1346.35 1441.56 1541.95 1641.74 1733.90 1816.28 1890.36 1954.24 2006.27 2044.76 2068.18 2094.45 2117.60 2143.60 2150.73 2149.20 2136.66 2135.98 2118.88 2101.97 2075.06 2037.70 2011.76 1998.34 1999.82 1991.71 1991.49 1983.27 1968.45 1942.46 1910.66 1854.12 1807.02 1754.50 1708.76 1682.54 1653.08 1617.07 1588.16 1560.44 1542.83 1532.14 1518.04 1504.31 1502.15 1499.49 1509.79 1515.65 1514.51 1515.25 1515.42 1508.68 1478.33 1429.51 1374.55 1335.68 1294.41 1264.70 1225.69 1188.97 1145.49 1095.43 1046.91
1018.81 1011.12 992.11 969.68 934.08 896.33 872.49 842.04 822.70 799.16 761.73 720.00 720.00 720.00 720.00 720.00 720.00 720.00 720.00 720.00 720.00 720.00 720.00 720.00 720.00 720.00 720.00 720.00 720.00 720.00 768.87 857.49 944.62 1021.55 1092.14 1170.05 1247.96 1335.52 1429.68 1522.05 1622.22 1720.60 1810.81 1885.81 1945.74 1995.29 2037.82 2073.29 2095.03 2110.46 2117.32 2126.41 2142.35 2138.07 2134.81 2118.40 2084.71 2059.44 2034.80 2013.44 1993.25 1992.33 1998.27 2008.99 2008.79 1996.02 1959.69 1917.01 1877.80 1828.69 1781.31 1740.50 1697.09 1667.66 1647.64 1631.95 1615.67 1592.62 1572.71 1554.55 1545.57 1537.26 1525.36 1523.08 1532.68 1545.42 1556.53 1553.19 1523.04 1488.06 1443.61 1394.79 1351.03 1307.11 1266.20 1233.23 1202.21 1164.75 1111.63 1050.48
998.03 985.48 965.19 943.11 917.30 876.72 839.31 810.22 794.93 773.32 731.46 720.00 720.00 720.00 720.00 720.00 720.00 720.00 720.00 720.00 720.00 720.00 720.00 720.00 720.00 720.00 720.00 720.00 720.00 720.00 784.33 875.38 962.84 1026.18 1089.17 1164.54 1252.68 1334.31 1423.33 1505.32 1605.27 1706.56 1802.79 1876.49 1933.18 1984.99 2029.24 2066.02 2088.26 2096.56 2098.54 2103.49 2123.84 2132.45 2133.51 2110.75 2075.22 2045.91 2036.54 2017.97 2004.08 2000.67 2007.40 2021.07 2026.50 2010.85 1971.06 1925.02 1888.50 1855.66 1814.62 1764.61 1727.07 1690.21 1685.09 1677.86 1664.13 1640.07 1617.02 1596.26 1588.45 1573.54 1551.69 1550.80 1548.92 1571.31 1581.88 1569.16 1532.13 1491.89 1446.44 1414.46 1372.87 1324.56 1279.21 1241.71 1206.39 1172.45 1118.96 1053.89
977.41 957.82 934.57 913.76 884.63 845.85 811.56 788.51 761.38 735.79 720.00 720.00 720.00 720.00 720.00 720.00 720.00 720.00 720.00 720.00 720.00 720.00 720.00 720.00 720.00 720.00 720.00 720.00 720.00 720.00 798.36 885.46 963.40 1027.05 1097.12 1167.30 1256.91 1337.85 1417.29 1501.55 1594.43 1687.85 1781.82 1852.98 1912.93 1972.03 2014.68 2044.31 2067.27 2077.65 2081.19 2091.85 2110.67 2116.57 2112.85 2091.98 2066.28 2046.90 2036.69 2028.48 2018.62 2020.26 2020.05 2028.97 2027.60 2011.71 1973.92 1945.61 1908.61 1881.15 1839.69 1798.62 1765.47 1735.82 1729.71 1720.94 1709.22 1686.56 1663.94 1639.16 1621.08 1604.74 1590.00 1579.35 1582.95 1591.64 1585.87 1568.85 1533.40 1502.98 1462.73 1429.24 1385.77 1342.26 1294.11 1247.67 1211.93 1174.21 1116.83 1060.66
941.63 933.69 909.58 879.57 852.79 824.22 800.15 763.83 726.57 720.00 720.00 720.00 720.00 720.00 720.00 720.00 720.00 720.00 720.00 720.00 720.00 720.00 720.00 720.00 720.00 720.00 720.00 720.00 720.00 734.77 806.06 881.87 956.35 1028.84 1107.21 1183.77 1262.55 1342.47 1422.80 1509.45 1590.55 1664.66 1750.08 1830.76 1893.13 1953.31 1996.33 2016.42 2037.33 2051.12 2074.17 2081.86 2088.29 2091.86 2085.77 2073.64 2062.67 2052.97 2040.59 2033.35 2040.23 2038.77 2043.83 2031.13 2015.06 2000.44 1980.10 1959.54 1935.26 1903.68 1865.18 1832.58 1806.80 1785.37 1776.61 1757.67 1751.17 1734.55 1706.21 1683.32 1657.70 1639.54 1628.05 1628.83 1610.59 1600.81 1583.83 1561.14 1537.49 1506.49 1475.95 1439.09 1398.14 1356.30 1313.00 1262.81 1209.86 1157.66 1113.61 1071.08
902.81 893.87 872.95 844.72 817.95 800.41 772.51 736.16 720.00 720.00 720.00 720.00 720.00 720.00 720.00 720.00 720.00 720.00 720.00 720.00 720.00 720.00 720.00 720.00 720.00 720.00 720.00 720.00 720.00 761.28 823.47 878.01 953.94 1045.31 1123.57 1200.77 1269.77 1347.63 1427.79 1513.02 1591.09 1653.94 1724.26 1796.92 1869.89 1925.92 1970.49 1987.40 2007.40 2031.50 2058.08 2072.59 2068.70 2058.99 2055.04 2055.27 2063.82 2056.51 2049.93 2053.94 2061.00 2065.08 2053.52 2030.58 2003.72 1993.21 1984.32 1972.03 1953.79 1916.47 1891.70 1874.91 1858.60 1844.72 1817.63 1791.43 1781.04 1769.09 1753.34 1733.32 1695.48 1679.83 1667.16 1663.38 1641.48 1608.64 1571.33 1548.13 1537.60 1521.62 1487.42 1442.60 1403.49 1369.90 1322.73 1274.69 1209.73 1155.60 1114.06 1079.75
854.32 850.09 841.14 820.12 798.26 777.15 745.46 720.00 720.00 720.00 720.00 720.00 720.00 720.00 720.00 720.00 720.00 720.00 720.00 720.00 720.00 720.00 720.00 720.00 720.00 720.00 720.00 720.00 720.71 783.79 836.65 893.51 965.37 1054.63 1140.21 1213.02 1288.71 1361.65 1438.40 1517.91 1583.68 1642.14 1699.19 1756.81 1826.51 1880.55 1919.04 1954.98 1981.89 2012.11 2035.70 2045.88 2039.93 2025.40 2028.51 2044.04 2052.82 2066.75 2068.91 2072.49 2075.08 2073.53 2061.07 2028.11 2004.69 1996.34 1986.78 1986.70 1965.49 1947.26 1927.13 1917.85 1910.33 1893.00 1867.72 1840.90 1817.66 1803.66 1789.72 1771.98 1748.53 1724.13 1709.20 1692.31 1662.03 1617.01 1569.78 1545.45 1529.28 1515.36 1492.46 1446.32 1404.90 1367.91 1328.67 1277.64 1217.47 1162.87 1111.85 1086.73
809.70 804.96 793.20 785.65 767.81 743.14 720.00 720.00 720.00 720.00 720.00 720.00 720.00 720.00 720.00 720.00 720.00 720.00 720.00 720.00 720.00 720.00 720.00 720.00 720.00 720.00 720.00 720.00 739.44 801.43 849.60 916.22 982.68 1065.46 1142.07 1223.91 1302.14 1377.32 1447.97 1513.48 1572.38 1624.46 1681.45 1729.45 1781.67 1825.59 1870.61 1918.76 1960.53 1986.91 2003.42 2007.81 2013.58 2006.01 2012.62 2030.36 2044.88 2073.74 2087.76 2094.76 2089.52 2073.79 2051.27 2031.41 2009.47 1998.05 1988.68 1983.71 1976.46 1974.69 1968.83 1963.71 1956.34 1936.93 1914.21 1882.97 1856.85 1839.01 1823.55 1805.97 1796.30 1774.19 1747.93 1714.56 1669.59 1624.99 1588.01 1549.84 1524.65 1503.58 1480.74 1445.91 1415.22 1372.37 1328.64 1276.75 1222.02 1174.34 1129.16 1087.58
768.17 749.43 748.55 746.80 734.32 720.00 720.00 720.00 720.00 720.00 720.00 720.00 720.00 720.00 720.00 720.00 720.00 720.00 720.00 720.00 720.00 720.00 720.00 720.00 720.00 720.00 720.00 720.00 749.38 808.33 873.24 946.56 1012.27 1079.08 1152.26 1230.86 1316.44 1388.81 1456.91 1504.55 1559.34 1612.16 1659.69 1692.84 1729.81 1775.98 1830.11 1885.46 1928.71 1950.00 1964.43 1969.89 1983.49 1994.37 2007.93 2022.25 2043.07 2071.62 2094.00 2101.14 2097.73 2078.13 2052.89 2034.30 2022.20 2007.52 1991.42 1977.18 1987.67 2004.60 2016.55 2009.38 1990.65 1976.90 1958.58 1932.26 1904.40 1873.13 1852.60 1849.16 1840.40 1819.53 1781.35 1723.16 1675.20 1636.50 1598.59 1564.09 1523.21 1489.14 1469.00 1448.57 1420.43 1375.22 1324.30 1275.41 1230.98 1187.03 1144.23 1100.73
739.84 720.00 720.00 720.00 720.00 720.00 720.00 720.00 720.00 720.00 720.00 720.00 720.00 720.00 720.00 720.00 720.00 720.00 720.00 720.00 720.00 720.00 720.00 720.00 720.00 720.00 720.00 720.00 766.43 832.03 894.59 976.75 1031.51 1101.06 1165.24 1238.54 1329.61 1405.39 1459.72 1504.59 1544.89 1585.30 1630.75 1663.35 1689.62 1720.62 1776.19 1836.62 1880.04 1908.25 1920.97 1931.05 1960.06 1985.59 2003.12 2020.12 2035.75 2067.02 2093.20 2103.29 2093.64 2073.04 2054.69 2045.59 2036.13 2015.56 1998.42 1992.55 2006.68 2034.78 2048.66 2048.49 2030.85 2010.68 1993.54 1973.41 1943.61 1919.11 1896.82 1887.05 1872.12 1851.17 1798.34 1740.83 1690.29 1648.68 1619.26 1574.72 1524.81 1480.74 1461.36 1436.70 1410.26 1373.64 1323.25 1282.37 1239.78 1201.44 1160.70 1120.10
720.00 720.00 720.00 720.00 720.00 720.00 720.00 720.00 720.00 720.00 720.00 720.00 720.00 720.00 720.00 720.00 720.00 720.00 720.00 720.00 720.00 720.00 720.00 720.00 720.00 720.00 720.00 720.00 786.67 849.68 919.17 994.65 1063.42 1122.95 1187.66 1255.05 1333.71 1400.91 1449.63 1500.07 1534.64 1566.85 1594.10 1622.18 1653.26 1693.28 1732.99 1781.02 1823.08 1854.99 1881.38 1907.81 1940.57 1972.55 1995.99 2022.68 2041.45 2063.40 2081.10 2079.79 2092.20 2078.19 2063.21 2056.94 2037.94 2026.21 2017.08 2026.07 2037.24 2058.22 2075.26 2075.47 2064.03 2051.11 2037.10 2012.57 1990.69 1967.86 1948.15 1920.89 1895.04 1856.27 1812.14 1764.31 1717.16 1675.96 1626.62 1573.89 1525.06 1486.92 1452.33 1422.09 1392.91 1363.41 1319.96 1284.62 1252.91 1214.26 1181.71 1160.38
720.00 720.00 720.00 720.00 720.00 720.00 720.00 720.00 720.00 720.00 720.00 720.00 720.00 720.00 720.00 720.00 720.00 720.00 720.00 720.00 720.00 720.00 720.00 720.00 720.00 720.00 720.00 728.45 802.67 878.32 944.60 1012.29 1079.44 1146.94 1216.06 1272.47 1335.60 1385.96 1440.43 1481.22 1513.95 1534.81 1555.68 1586.24 1626.70 1663.82 1697.89 1729.14 1760.49 1799.59 1846.08 1886.92 1921.35 1949.90 1986.41 2020.81 2047.49 2057.61 2065.50 2071.42 2078.98 2083.29 2071.72 2060.57 2043.60 2037.10 2048.14 2064.50 2072.43 2083.21 2085.21 2097.33 2092.95 2083.80 2063.19 2050.27 2030.72 2014.94 1996.03 1959.19 1914.42 1866.85 1828.66 1789.80 1745.77 1692.84 1632.59 1584.34 1535.88 1489.85 1449.18 1410.76 1378.33 1350.41 1322.38 1291.31 1259.12 1232.50 1211.34 1201.54
720.00 720.00 720.00 720.00 720.00 720.00 720.00 720.00 720.00 720.00 720.00 720.00 720.00 720.00 720.00 720.00 720.00 720.00 720.00 720.00 720.00 720.00 720.00 720.00 720.00 720.00 720.00 730.80 819.61 899.24 967.64 1028.20 1099.11 1173.86 1236.86 1289.53 1330.53 1376.43 1420.43 1462.92 1485.27 1503.34 1527.40 1549.29 1597.99 1624.16 1652.73 1666.68 1701.76 1755.95 1800.52 1860.96 1896.68 1939.29 1976.54 2014.69 2037.21 2049.55 2043.37 2054.28 2063.29 2073.56 2082.05 2067.89 2065.15 2069.81 2082.60 2099.76 2103.24 2101.46 2097.29 2104.41 2112.94 2113.18 2104.64 2085.81 2072.32 2057.68 2029.70 1980.89 1926.93 1883.76 1842.99 1811.06 1757.21 1704.75 1639.87 1585.15 1542.43 1496.33 1441.70 1398.69 1358.12 1333.52 1315.66 1294.03 1273.04 1256.13 1243.97 1236.24
720.00 720.00 720.00 720.00 720.00 720.00 720.00 720.00 720.00 720.00 720.00 720.00 720.00 720.00 720.00 720.00 720.00 720.00 720.00 720.00 720.00 720.00 720.00 720.00 720.00 720.00 720.00 736.14 826.28 901.08 982.01 1056.17 1127.77 1195.60 1254.27 1298.36 1332.20 1364.28 1393.23 1429.77 1461.52 1479.96 1501.35 1530.08 1564.90 1586.40 1605.37 1620.27 1656.01 1704.26 1764.60 1825.93 1876.08 1928.85 1964.18 2000.67 2021.13 2030.24 2035.65 2044.44 2051.70 2063.83 2075.28 2081.26 2091.85 2103.31 2121.40 2131.87 2125.15 2116.47 2110.75 2114.41 2129.79 2135.63 2134.20 2119.64 2118.04 2089.10 2061.20 2003.29 1950.03 1896.56 1861.06 1816.90 1768.91 1710.84 1656.54 1601.78 1555.16 1498.97 1447.45 1391.09 1351.49 1324.53 1312.28 1303.49 1294.34 1282.96 1282.60 1269.98
720.00 720.00 720.00 720.00 720.00 720.00 720.00 720.00 720.00 720.00 720.00 720.00 720.00 720.00 720.00 720.00 720.00 720.00 720.00 720.00 720.00 720.00 720.00 720.00 720.00 720.00 720.00 750.42 828.10 906.46 992.38 1075.86 1150.65 1205.30 1260.17 1298.23 1326.54 1346.57 1369.80 1394.81 1423.95 1455.00 1491.68 1510.85 1528.77 1538.26 1556.41 1583.91 1618.32 1673.76 1724.66 1786.49 1848.32 1905.85 1952.54 1982.22 1993.60 2013.70 2025.42 2039.47 2044.16 2051.34 2070.78 2094.68 2126.11 2142.70 2151.90 2144.10 2146.89 2147.23 2140.77 2131.34 2139.72 2148.00 2165.72 2162.81 2144.33 2114.13 2065.48 2023.89 1979.93 1932.35 1872.38 1822.43 1774.40 1719.13 1673.09 1618.02 1563.66 1500.61 1446.85 1401.38 1354.54 1325.46 1307.10 1305.70 1315.77 1320.71 1310.35 1288.96
720.00 720.00 720.00 720.00 720.00 720.00 720.00 720.00 720.00 720.00 720.00 720.00 720.00 720.00 720.00 720.00 720.00 720.00 720.00 720.00 720.00 720.00 720.00 720.00 720.00 720.00 720.00 763.78 826.35 908.62 1002.23 1094.71 1164.31 1220.05 1253.93 1288.39 1317.84 1333.58 1344.28 1358.95 1390.74 1426.93 1461.30 1484.95 1492.01 1499.89 1518.28 1557.01 1605.26 1643.63 1689.81 1751.70 1820.27 1878.39 1924.41 1953.09 1968.85 1994.93 2014.42 2028.54 2035.57 2048.46 2072.96 2112.75 2152.91 2170.33 2175.28 2170.38 2164.22 2164.79 2164.86 2153.88 2159.02 2174.62 2181.21 2185.78 2170.16 2134.85 2089.35 2041.08 2007.38 1961.86 1894.08 1824.67 1773.84 1727.22 1690.88 1631.20 1568.76 1502.35 1449.96 1412.30 1370.67 1335.67 1314.68 1314.17 1330.85 1343.79 1333.55 1295.31
720.00 720.00 720.00 720.00 720.00 720.00 720.00 720.00 720.00 720.00 720.00 720.00 720.00 720.00 720.00 720.00 720.00 720.00 720.00 720.00 720.00 720.00 720.00 720.00 720.00 720.00 720.00 773.26 842.47 920.01 1013.66 1097.54 1165.14 1208.33 1242.23 1270.13 1299.95 1312.32 1329.54 1340.03 1363.73 1394.92 1427.88 1441.42 1449.84 1469.22 1495.68 1534.72 1579.76 1618.82 1663.55 1714.95 1785.66 1840.07 1892.81 1921.37 1950.43 1977.09 2003.72 2018.20 2037.81 2059.82 2088.34 2132.71 2169.67 2189.86 2196.20 2183.77 2182.20 2191.34 2189.83 2190.09 2181.00 2186.52 2192.46 2194.68 2172.82 2146.16 2106.37 2066.71 2023.53 1968.43 1906.97 1835.66 1784.08 1743.89 1699.13 1638.13 1576.96 1516.28 1462.42 1417.95 1388.16 1358.98 1347.20 1340.79 1352.25 1347.33 1330.26 1299.74
720.00 720.00 720.00 720.00 720.00 720.00 720.00 720.00 720.00 720.00 720.00 720.00 720.00 720.00 720.00 720.00 720.00 720.00 720.00 720.00 720.00 720.00 720.00 720.00 720.00 720.00 724.86 785.81 864.05 937.27 1013.34 1088.87 1150.24 1203.05 1234.39 1257.40 1276.59 1293.39 1310.35 1331.00 1347.92 1364.62 1384.48 1399.55 1421.55 1452.06 1482.95 1514.35 1552.41 1599.71 1643.84 1691.65 1741.70 1795.77 1845.01 1887.77 1926.28 1955.99 1980.11 2010.07 2042.21 2077.30 2111.87 2149.35 2175.59 2191.10 2205.87 2208.19 2214.85 2212.24 2211.45 2211.61 2211.35 2205.50 2197.19 2189.08 2176.32 2149.91 2123.65 2083.74 2033.30 1974.78 1915.51 1861.70 1803.09 1746.85 1695.89 1642.81 1586.15 1531.39 1485.00 1439.08 1406.59 1389.77 1378.58 1364.41 1358.24 1344.72 1322.46 1300.82
720.00 720.00 720.00 720.00 720.00 720.00 720.00 720.00 720.00 720.00 720.00 720.00 720.00 720.00 720.00 720.00 720.00 720.00 720.00 720.00 720.00 720.00 720.00 720.00 720.00 720.00 733.87 806.64 887.87 950.79 1016.35 1070.34 1127.26 1178.20 1208.65 1238.39 1246.40 1264.20 1290.81 1313.72 1323.30 1332.50 1339.66 1362.42 1394.35 1433.77 1466.37 1499.87 1523.45 1572.73 1623.57 1664.81 1705.82 1747.72 1796.39 1852.15 1900.52 1933.16 1962.43 2000.08 2048.13 2092.76 2135.63 2155.72 2175.62 2192.28 2214.84 2225.16 2231.67 2227.72 2229.34 2238.89 2241.14 2224.73 2206.15 2186.26 2173.85 2155.83 2132.75 2095.18 2032.41 1978.64 1928.91 1880.04 1822.42 1757.98 1698.03 1643.13 1596.19 1554.77 1510.39 1472.52 1442.27 1429.27 1413.48 1392.91 1361.83 1329.40 1303.53 1292.91
720.00 720.00 720.00 720.00 720.00 720.00 720.00 720.00 720.00 720.00 720.00 720.00 720.00 720.00 720.00 720.00 720.00 720.00 720.00 720.00 720.00 720.00 720.00 720.00 720.00 720.00 748.25 824.13 900.99 964.23 1013.17 1050.56 1092.87 1136.56 1180.02 1206.96 1226.30 1248.80 1275.08 1295.40 1302.82 1299.98 1304.92 1328.54 1370.98 1416.12 1449.16 1480.47 1511.53 1552.93 1604.98 1640.65 1671.42 1705.27 1755.39 1813.46 1863.14 1909.63 1955.89 1998.30 2064.46 2117.48 2138.38 2160.33 2169.12 2188.76 2215.29 2242.47 2252.16 2252.21 2254.92 2259.47 2253.07 2236.61 2219.14 2186.24 2170.04 2156.00 2135.22 2097.18 2041.17 1984.07 1939.20 1895.59 1838.39 1765.85 1704.37 1645.57 1612.83 1580.11 1539.87 1507.75 1478.08 1465.21 1442.08 1406.97 1364.17 1321.89 1295.31 1284.09
720.00 720.00 720.00 720.00 720.00 720.00 720.00 720.00 720.00 720.00 720.00 720.00 720.00 720.00 720.00 720.00 720.00 720.00 720.00 720.00 720.00 720.00 720.00 720.00 720.00 720.00 769.97 841.03 912.31 956.04 1002.05 1031.82 1063.79 1097.30 1140.12 1176.24 1210.41 1234.38 1249.88 1261.10 1266.63 1279.91 1287.82 1319.06 1352.69 1392.46 1429.95 1469.23 1504.23 1540.93 1580.30 1611.73 1641.32 1678.33 1717.55 1768.95 1823.86 1883.38 1953.85 2015.46 2070.03 2111.26 2141.09 2163.52 2174.32 2192.99 2224.08 2244.80 2269.54 2273.53 2282.20 2282.67 2266.42 2246.63 2219.64 2198.98 2169.20 2145.73 2114.12 2086.53 2046.25 2001.56 1954.25 1910.36 1846.33 1779.22 1714.21 1663.72 1621.88 1595.04 1575.16 1550.17 1527.76 1495.80 1460.81 1420.99 1368.25 1328.00 1291.16 1276.24
720.00 720.00 720.00 720.00 720.00 720.00 720.00 720.00 720.00 720.00 720.00 720.00 720.00 720.00 720.00 720.00 720.00 720.00 720.00 720.00 720.00 720.00 720.00 720.00 720.00 720.00 777.64 842.68 898.82 938.31 978.39 1011.13 1038.86 1059.51 1096.78 1138.11 1181.12 1208.95 1227.62 1229.70 1244.06 1256.50 1284.62 1307.04 1331.91 1367.02 1407.34 1448.25 1488.43 1530.42 1556.13 1586.10 1615.02 1647.96 1687.27 1732.00 1788.13 1869.83 1951.96 2017.76 2067.19 2098.49 2133.68 2157.52 2182.29 2205.48 2221.88 2245.91 2267.97 2296.47 2301.52 2295.40 2272.10 2250.87 2227.53 2207.23 2168.85 2130.26 2096.02 2069.82 2041.92 2013.89 1969.90 1909.49 1850.49 1795.65 1742.42 1690.58 1650.94 1625.04 1604.34 1592.35 1564.18 1527.07 1471.49 1418.40 1377.16 1335.15 1297.58 1261.51
720.00 720.00 720.00 720.00 720.00 720.00 720.00 720.00 720.00 720.00 720.00 720.00 720.00 720.00 720.00 720.00 720.00 720.00 720.00 720.00 720.00 720.00 720.00 720.00 720.00 720.00 777.49 839.66 878.74 915.90 947.30 984.83 1007.25 1028.89 1061.85 1099.27 1142.99 1175.28 1191.00 1199.90 1214.97 1240.43 1274.52 1300.01 1318.55 1348.64 1393.34 1440.86 1485.37 1511.85 1534.35 1559.44 1591.18 1628.63 1664.31 1708.59 1768.92 1851.74 1934.21 2006.58 2048.39 2090.41 2116.87 2154.95 2191.94 2213.51 2233.07 2245.51 2281.18 2303.60 2312.05 2305.17 2276.42 2255.77 2238.77 2202.43 2167.70 2120.87 2086.53 2055.64 2048.07 2016.01 1970.04 1909.99 1854.92 1812.57 1767.36 1729.49 1685.58 1654.81 1639.90 1626.42 1594.06 1543.92 1485.65 1433.13 1387.36 1346.68 1306.61 1265.29
720.00 720.00 720.00 720.00 720.00 720.00 720.00 720.00 720.00 720.00 720.00 720.00 720.00 720.00 720.00 720.00 720.00 720.00 720.00 720.00 720.00 720.00 720.00 720.00 720.00 720.00 758.09 811.77 850.83 885.90 916.04 950.82 973.36 997.32 1026.25 1059.46 1100.58 1128.63 1157.78 1174.02 1203.76 1236.75 1257.69 1291.99 1307.74 1337.09 1376.42 1420.52 1458.78 1490.16 1512.00 1539.53 1567.37 1608.55 1649.43 1694.83 1770.32 1837.28 1918.23 1979.70 2032.42 2068.47 2110.81 2148.98 2190.71 2216.68 2239.34 2251.47 2278.47 2299.51 2308.81 2305.86 2285.67 2263.00 2237.21 2193.22 2158.38 2113.43 2077.24 2056.18 2037.77 2009.21 1965.69 1920.13 1873.95 1832.33 1796.46 1763.01 1733.55 1701.42 1672.27 1641.52 1608.83 1555.03 1501.77 1451.52 1398.09 1356.48 1311.63 1273.39
766.91 729.54 720.00 720.00 720.00 720.00 720.00 720.00 720.00 720.00 720.00 720.00 720.00 720.00 720.00 720.00 720.00 720.00 720.00 720.00 720.00 720.00 720.00 720.00 720.00 720.00 720.00 761.32 808.92 846.33 876.65 904.43 934.26 966.47 996.90 1029.80 1046.78 1078.07 1125.67 1158.52 1189.05 1222.43 1242.79 1274.56 1302.93 1334.63 1370.43 1397.70 1430.24 1462.04 1491.44 1522.25 1552.31 1586.64 1641.75 1701.86 1765.91 1827.77 1884.73 1937.67 1998.07 2054.41 2101.69 2144.39 2179.27 2214.70 2244.96 2267.43 2278.57 2295.07 2295.79 2297.40 2288.16 2263.95 2231.70 2189.13 2148.55 2115.29 2087.57 2054.52 2019.85 1987.82 1954.79 1925.77 1892.86 1860.10 1826.34 1803.86 1774.99 1744.87 1704.22 1655.46 1613.07 1563.16 1518.49 1473.15 1414.00 1362.67 1318.15 1292.78
805.75 775.56 724.87 720.00 720.00 720.00 720.00 720.00 720.00 720.00 720.00 720.00 720.00 720.00 720.00 720.00 720.00 720.00 720.00 720.00 720.00 720.00 720.00 720.00 720.00 720.00 720.00 720.00 753.60 801.48 829.34 861.11 889.79 928.42 962.04 984.49 1004.96 1032.78 1085.19 1132.22 1177.50 1200.44 1228.54 1254.05 1296.36 1335.48 1354.71 1376.53 1401.05 1431.99 1470.06 1506.58 1537.76 1580.24 1636.74 1701.59 1767.56 1809.45 1856.40 1900.02 1966.08 2036.35 2093.69 2132.73 2171.26 2208.73 2243.85 2273.64 2287.06 2283.27 2283.46 2286.31 2276.33 2258.33 2215.23 2174.26 2148.92 2118.96 2089.86 2054.84 2004.17 1968.21 1950.06 1932.48 1909.98 1889.40 1860.45 1843.52 1815.98 1785.51 1735.21 1668.22 1616.05 1575.65 1533.62 1488.44 1429.76 1375.68 1338.59 1316.97
834.57 799.21 748.25 720.00 720.00 720.00 720.00 720.00 720.00 720.00 720.00 720.00 720.00 720.00 720.00 720.00 720.00 720.00 720.00 720.00 720.00 720.00 720.00 720.00 720.00 720.00 720.00 720.00 720.00 738.27 775.25 816.46 845.44 887.25 912.02 938.81 963.76 992.60 1043.24 1095.51 1141.35 1182.43 1213.84 1252.39 1293.70 1320.47 1348.49 1357.84 1379.01 1410.90 1454.05 1494.01 1532.93 1586.97 1643.28 1698.07 1751.15 1789.11 1823.61 1876.20 1935.67 2005.05 2067.33 2121.93 2161.59 2203.13 2239.64 2268.13 2280.14 2276.32 2271.64 2267.46 2253.87 2234.95 2205.89 2172.14 2144.04 2116.91 2085.84 2044.97 1998.82 1961.25 1945.28 1937.36 1934.14 1916.97 1899.72 1876.43 1844.25 1806.09 1746.96 1687.37 1629.48 1586.60 1540.74 1498.02 1448.74 1403.67 1366.82 1347.55
853.29 818.64 766.80 722.45 720.00 720.00 720.00 720.00 720.00 720.00 720.00 720.00 720.00 720.00 720.00 720.00 720.00 720.00 720.00 720.00 720.00 720.00 720.00 720.00 720.00 720.00 720.00 720.00 720.00 720.00 720.00 758.47 796.49 826.03 851.12 880.21 925.04 963.34 1005.04 1056.67 1101.33 1153.44 1204.55 1243.05 1279.88 1309.28 1327.76 1348.65 1368.64 1393.18 1425.97 1479.59 1542.33 1594.49 1648.78 1693.08 1733.14 1765.38 1807.24 1857.47 1913.95 1973.45 2039.69 2096.39 2153.20 2198.14 2228.72 2253.76 2263.93 2267.41 2258.31 2244.25 2224.65 2208.54 2198.01 2178.74 2149.79 2119.27 2072.93 2036.05 2002.57 1970.93 1953.43 1937.95 1943.38 1943.28 1932.82 1909.28 1867.53 1818.83 1762.02 1709.08 1650.41 1594.33 1545.72 1508.39 1467.43 1437.55 1407.01 1375.48
864.05 818.23 788.60 759.23 723.74 720.00 720.00 720.00 720.00 720.00 720.00 720.00 720.00 720.00 720.00 720.00 720.00 720.00 720.00 720.00 720.00 720.00 720.00 720.00 720.00 720.00 720.00 720.00 720.00 720.00 720.00 720.00 724.23 762.29 791.76 834.24 889.47 927.41 961.92 1005.59 1056.99 1122.99 1185.12 1230.84 1257.69 1286.70 1307.28 1332.86 1361.34 1387.26 1423.30 1478.13 1542.62 1605.82 1650.93 1679.41 1707.35 1750.99 1794.70 1846.57 1893.58 1941.34 2002.02 2072.62 2136.69 2181.03 2211.01 2230.80 2246.44 2250.21 2233.66 2220.29 2195.00 2186.04 2182.84 2175.82 2152.01 2111.69 2071.35 2033.22 2011.59 1991.00 1971.59 1953.15 1959.08 1959.06 1956.21 1924.99 1878.48 1834.02 1777.31 1734.10 1676.50 1613.44 1557.17 1513.65 1493.77 1472.77 1447.83 1414.66
865.48 831.08 812.54 787.87 755.56 720.00 720.00 720.00 720.00 720.00 720.00 720.00 720.00 720.00 720.00 720.00 720.00 720.00 720.00 720.00 720.00 720.00 720.00 720.00 720.00 720.00 720.00 720.00 720.00 720.00 720.00 720.00 720.00 720.00 730.86 777.29 834.64 878.96 916.56 961.76 1017.79 1090.31 1151.32 1201.67 1235.66 1261.63 1281.36 1323.87 1353.61 1381.99 1418.49 1474.74 1540.02 1596.20 1638.31 1663.25 1691.17 1733.58 1783.75 1831.77 1871.82 1921.54 1975.72 2043.96 2110.59 2163.15 2188.73 2203.92 2219.39 2226.78 2213.68 2197.11 2178.01 2166.22 2168.58 2160.28 2140.22 2101.39 2063.73 2036.21 2021.57 2009.72 1991.42 1972.48 1969.15 1966.34 1962.25 1935.95 1891.58 1839.64 1795.36 1746.51 1690.57 1634.86 1580.69 1545.00 1522.58 1511.66 1481.00 1445.24
863.72 848.29 823.94 806.14 778.04 742.58 720.00 720.00 720.00 720.00 720.00 720.00 720.00 720.00 720.00 720.00 720.00 720.00 720.00 720.00 720.00 720.00 720.00 720.00 720.00 720.00 720.00 720.00 720.00 720.00 720.00 720.00 720.00 720.00 720.00 720.00 768.42 813.23 864.39 920.92 979.30 1046.54 1100.86 1158.82 1193.24 1234.33 1271.69 1308.43 1344.42 1388.56 1436.03 1485.90 1527.26 1575.78 1615.64 1650.59 1689.70 1728.64 1768.53 1807.69 1856.94 1902.46 1957.86 2019.31 2078.63 2122.82 2158.42 2173.43 2185.90 2184.73 2182.01 2169.49 2162.89 2160.22 2150.30 2135.56 2125.44 2092.36 2071.35 2053.39 2039.09 2026.12 2014.09 2001.16 1985.82 1979.64 1955.40 1932.12 1896.21 1855.17 1808.16 1754.59 1705.66 1655.33 1617.16 1579.11 1555.97 1531.70 1509.75 1470.84
863.63 861.81 843.28 814.12 786.92 769.37 741.65 720.00 720.00 720.00 720.00 720.00 720.00 720.00 720.00 720.00 720.00 720.00 720.00 720.00 720.00 720.00 720.00 720.00 720.00 720.00 720.00 720.00 720.00 720.00 720.00 720.00 720.00 720.00 720.00 720.00 720.00 747.87 808.19 874.81 938.37 986.97 1043.92 1096.96 1157.64 1209.96 1253.52 1295.25 1338.15 1397.40 1449.60 1492.40 1525.56 1546.82 1589.86 1636.61 1684.99 1722.55 1755.34 1796.89 1839.74 1893.13 1943.30 1989.25 2029.42 2075.47 2113.99 2137.51 2149.43 2144.86 2146.99 2148.96 2153.48 2145.73 2129.20 2110.51 2094.18 2090.56 2081.46 2073.84 2055.31 2046.39 2036.05 2029.01 2002.09 1972.15 1944.39 1917.81 1894.59 1867.69 1820.57 1766.91 1720.28 1684.80 1662.36 1625.87 1588.27 1557.28 1524.60 1505.60
853.79 860.71 849.45 822.37 800.10 789.47 775.28 746.79 720.00 720.00 720.00 720.00 720.00 720.00 720.00 720.00 720.00 720.00 720.00 720.00 720.00 720.00 720.00 720.00 720.00 720.00 720.00 720.00 720.00 720.00 720.00 720.00 720.00 720.00 720.00 720.00 720.00 720.00 749.88 823.11 882.46 932.31 979.60 1035.63 1102.72 1167.10 1231.07 1282.44 1336.16 1398.45 1443.43 1487.07 1506.20 1532.62 1570.97 1619.83 1673.73 1713.57 1746.56 1782.62 1827.32 1881.82 1934.60 1958.74 1993.94 2022.26 2060.86 2090.97 2100.62 2111.44 2115.37 2129.45 2135.92 2130.43 2110.61 2085.00 2082.90 2084.01 2094.76 2090.63 2074.09 2064.59 2054.78 2039.36 2016.16 1977.92 1940.12 1912.97 1892.36 1865.20 1827.33 1780.91 1752.91 1719.03 1699.87 1668.06 1629.98 1576.67 1548.33 1528.05
844.15 847.57 842.09 826.93 816.90 801.33 793.24 770.61 745.03 720.00 720.00 720.00 720.00 720.00 720.00 720.00 720.00 720.00 720.00 720.00 720.00 720.00 720.00 720.00 720.00 720.00 720.00 720.00 720.00 720.00 720.00 720.00 720.00 720.00 720.00 720.00 720.00 720.00 720.00 757.96 810.01 861.30 913.86 967.77 1043.98 1123.69 1190.58 1264.36 1332.31 1387.67 1431.53 1466.84 1492.54 1523.15 1559.64 1607.06 1652.44 1700.44 1741.79 1784.22 1825.57 1867.85 1908.38 1931.72 1952.15 1973.06 2002.89 2026.53 2054.75 2076.77 2095.00 2106.05 2105.03 2101.28 2091.22 2071.99 2073.57 2087.12 2096.72 2106.25 2094.15 2083.11 2073.63 2045.88 2017.55 1980.05 1944.69 1911.05 1883.72 1856.10 1833.40 1814.27 1783.51 1761.85 1733.58 1699.76 1656.29 1611.27 1578.39 1561.38
832.35 823.16 822.50 833.93 830.47 816.75 806.33 789.24 764.24 752.61 739.80 733.16 732.92 745.92 764.25 762.57 745.95 720.00 720.00 720.00 720.00 720.00 720.00 720.00 720.00 720.00 720.00 720.00 720.00 720.00 720.00 720.00 720.00 720.00 720.00 720.00 720.00 720.00 720.00 720.00 731.93 789.87 849.70 916.45 982.84 1067.15 1155.41 1239.69 1311.67 1364.00 1402.84 1438.03 1475.26 1518.67 1553.09 1585.57 1629.06 1674.98 1733.02 1781.08 1818.39 1852.97 1870.68 1897.13 1918.56 1929.81 1942.85 1964.78 1998.78 2037.32 2062.53 2072.35 2071.72 2068.60 2070.37 2069.92 2076.06 2083.13 2091.97 2108.14 2110.60 2099.65 2083.14 2051.89 2016.17 1979.86 1952.03 1906.94 1875.36 1848.48 1837.08 1834.39 1821.42 1796.23 1766.88 1724.39 1688.68 1649.08 1616.56 1593.00
818.09 802.47 814.69 827.09 840.72 829.24 810.44 799.34 790.21 791.21 780.97 775.75 784.96 801.81 821.52 826.53 796.32 752.59 720.00 720.00 720.00 720.00 720.00 720.00 720.00 720.00 720.00 720.00 720.00 720.00 720.00 720.00 720.00 720.00 720.00 720.00 720.00 720.00 720.00 720.00 720.00 720.00 787.16 860.40 929.53 1010.20 1104.87 1193.84 1275.53 1326.17 1365.39 1409.96 1457.87 1508.41 1540.26 1571.47 1611.17 1662.03 1725.34 1776.29 1802.91 1824.64 1838.88 1856.78 1871.80 1881.79 1894.62 1911.20 1952.36 1998.21 2027.72 2037.62 2043.30 2043.16 2059.79 2073.27 2080.71 2084.72 2092.33 2104.10 2115.79 2110.87 2086.47 2050.79 2017.41 1986.33 1948.40 1913.22 1871.28 1850.97 1846.85 1857.75 1848.75 1825.71 1788.83 1748.14 1720.75 1693.86 1664.26 1636.55
813.82 800.23 809.30 823.40 829.39 832.78 818.95 816.85 813.35 817.94 818.26 827.07 840.39 852.38 864.22 861.02 834.40 787.56 757.53 720.00 720.00 720.00 720.00 720.00 720.00 720.00 720.00 720.00 720.00 720.00 720.00 720.00 720.00 720.00 720.00 720.00 720.00 720.00 720.00 720.00 720.00 720.00 722.20 798.50 871.70 960.72 1043.21 1136.35 1211.15 1272.61 1330.55 1381.71 1437.53 1480.09 1520.50 1551.99 1594.68 1657.76 1714.84 1755.68 1780.93 1795.49 1807.25 1814.08 1826.89 1836.37 1848.26 1871.70 1908.43 1943.03 1976.20 1991.72 2006.29 2027.17 2047.18 2072.37 2078.99 2087.50 2093.40 2106.72 2104.41 2105.07 2088.54 2050.82 2017.22 1984.82 1950.30 1918.58 1885.58 1871.28 1865.74 1868.47 1863.92 1839.69 1811.95 1779.27 1754.71 1736.97 1710.46 1692.39
810.83 810.95 807.88 814.56 819.90 828.47 832.49 831.43 841.83 847.34 864.00 880.95 890.34 893.38 890.11 872.40 854.25 823.97 791.93 748.55 720.00 720.00 720.00 720.00 720.00 720.00 720.00 720.00 720.00 720.00 720.00 720.00 720.00 720.00 720.00 720.00 720.00 720.00 720.00 720.00 720.00 720.00 720.00 746.49 828.60 910.08 990.48 1065.80 1137.64 1222.31 1291.52 1350.10 1401.79 1453.11 1498.35 1549.06 1599.71 1643.26 1683.46 1722.02 1746.13 1764.33 1768.10 1774.14 1782.70 1796.24 1813.89 1837.34 1864.60 1890.45 1917.38 1946.47 1981.66 2015.60 2038.49 2055.33 2077.64 2095.88 2095.59 2100.52 2096.07 2088.59 2075.00 2055.17 2020.99 1986.95 1948.63 1922.13 1905.71 1893.57 1890.55 1884.71 1868.12 1854.08 1834.30 1815.10 1797.58 1781.41 1764.72 1749.36
818.32 818.80 810.53 801.18 803.18 820.35 839.66 852.96 867.70 880.83 900.44 925.32 935.23 923.74 903.55 873.28 856.79 844.68 815.44 772.67 723.15 720.00 720.00 720.00 720.00 720.00 720.00 720.00 720.00 720.00 720.00 720.00 720.00 720.00 720.00 720.00 720.00 720.00 720.00 720.00 720.00 720.00 720.00 720.00 783.23 855.18 924.71 997.90 1068.02 1158.33 1239.73 1311.41 1366.07 1420.67 1479.41 1535.73 1592.28 1633.83 1656.34 1677.69 1705.80 1727.07 1733.64 1737.28 1738.73 1756.54 1784.81 1807.53 1819.50 1833.92 1859.63 1906.98 1950.94 1994.78 2020.18 2046.45 2062.73 2088.81 2104.34 2100.21 2077.15 2068.66 2055.77 2042.18 2019.97 1989.18 1957.46 1938.57 1937.77 1923.72 1909.34 1884.41 1867.80 1860.13 1858.55 1851.13 1836.09 1821.15 1810.27 1802.51
827.15 826.59 813.12 802.35 804.52 815.59 851.08 871.69 897.94 918.67 949.56 960.30 961.12 941.81 912.43 884.54 867.59 843.11 825.90 787.37 748.67 720.00 720.00 720.00 720.00 720.00 720.00 720.00 720.00 720.00 720.00 720.00 720.00 720.00 720.00 720.00 720.00 720.00 720.00 720.00 720.00 720.00 720.00 720.00 735.58 802.82 866.38 931.41 1002.82 1089.74 1179.05 1262.12 1325.77 1386.31 1453.77 1523.70 1573.50 1603.89 1625.02 1638.47 1654.85 1677.66 1692.96 1703.09 1713.19 1722.66 1750.52 1770.12 1778.69 1793.22 1824.09 1870.25 1929.10 1975.43 2005.75 2031.23 2049.93 2079.31 2087.99 2085.79 2068.03 2052.25 2043.05 2029.87 2019.89 1993.56 1971.91 1965.64 1962.45 1953.45 1924.76 1896.41 1876.58 1872.38 1881.57 1884.05 1879.82 1867.02 1864.23 1851.27
829.44 821.58 814.79 810.94 808.65 824.40 853.53 892.34 927.57 958.79 975.82 981.64 975.37 951.33 922.80 900.93 871.26 852.11 827.08 796.98 765.06 745.88 720.00 720.00 720.00 720.00 720.00 720.00 720.00 720.00 720.00 720.00 720.00 720.00 720.00 720.00 720.00 720.00 720.00 720.00 720.00 720.00 720.00 720.00 720.00 746.23 816.64 880.65 952.43 1025.77 1109.83 1199.60 1289.25 1363.72 1441.03 1498.42 1544.15 1574.93 1586.73 1596.41 1613.48 1626.32 1649.11 1665.98 1690.62 1703.49 1716.10 1726.56 1739.58 1763.52 1795.86 1842.57 1888.28 1933.49 1976.86 2013.44 2047.45 2061.20 2071.73 2067.09 2053.89 2038.66 2022.64 2004.64 2005.08 2005.18 2006.82 2001.70 1981.54 1963.49 1935.05 1918.89 1901.69 1895.16 1899.24 1911.20 1918.44 1920.75 1914.42 1900.48
839.51 825.31 816.51 819.30 831.90 847.52 866.58 906.99 954.20 990.26 1000.68 997.81 975.31 956.76 940.62 909.11 875.96 838.99 817.23 799.49 790.92 766.30 730.77 720.00 720.00 720.00 720.00 720.00 720.00 720.00 720.00 720.00 720.00 720.00 720.00 720.00 720.00 720.00 720.00 720.00 720.00 720.00 720.00 720.00 720.00 720.00 768.75 833.05 910.92 983.26 1058.52 1146.29 1242.13 1338.81 1419.80 1462.40 1497.77 1529.96 1547.48 1558.40 1572.41 1580.70 1601.01 1630.00 1665.22 1674.35 1682.75 1689.92 1708.22 1741.70 1782.84 1817.45 1846.58 1899.20 1950.57 1995.72 2029.33 2037.59 2042.03 2040.35 2036.54 2025.71 2006.70 2002.31 2003.34 2021.41 2027.71 2021.17 2004.66 1971.58 1951.74 1941.37 1927.25 1924.49 1923.16 1935.46 1952.62 1966.79 1961.13 1942.68
846.17 823.77 822.82 838.85 857.07 870.21 895.56 923.31 968.21 995.66 1010.28 991.92 973.04 960.73 944.97 915.21 879.51 842.51 817.44 806.45 803.05 783.17 750.22 720.00 720.00 720.00 720.00 720.00 720.00 720.00 720.00 720.00 720.00 720.00 720.00 720.00 720.00 720.00 720.00 720.00 720.00 720.00 720.00 720.00 720.00 720.00 731.49 803.47 871.00 941.30 1016.26 1107.19 1205.26 1307.70 1379.16 1419.25 1448.81 1483.78 1505.59 1519.83 1531.59 1543.65 1564.43 1592.22 1629.38 1643.09 1647.09 1659.98 1688.90 1722.15 1760.68 1785.24 1819.28 1859.96 1914.41 1971.75 1999.65 2011.81 2008.42 2013.92 2017.88 2012.39 1996.67 1998.14 2008.59 2030.96 2039.75 2029.61 2009.37 1983.96 1974.13 1960.86 1962.47 1959.90 1953.02 1964.67 1978.44 1995.64 2004.54 1986.36
844.37 838.28 845.85 856.29 881.60 907.75 926.64 950.29 970.59 990.22 1003.74 991.20 979.53 964.63 944.46 911.70 878.62 850.03 827.34 814.93 806.02 787.29 764.77 727.66 720.00 720.00 720.00 720.00 720.00 720.00 720.00 720.00 720.00 720.00 720.00 720.00 720.00 720.00 720.00 720.00 720.00 720.00 720.00 720.00 720.00 720.00 720.00 783.51 840.42 908.53 987.53 1080.04 1171.81 1260.34 1327.54 1373.26 1414.02 1435.44 1461.69 1484.24 1501.77 1519.17 1536.69 1561.33 1580.31 1605.14 1625.05 1649.68 1670.01 1702.94 1737.25 1757.44 1797.59 1838.85 1880.23 1923.51 1953.85 1973.65 1982.52 1986.86 1990.60 1995.36 1999.88 2013.34 2020.07 2034.72 2038.63 2033.99 2018.44 2005.27 1997.68 1997.61 1997.73 1988.44 1992.28 1997.52 2013.23 2028.87 2029.40 2023.46
852.00 862.21 870.68 886.47 904.34 933.97 959.12 969.68 978.60 979.44 984.83 988.98 982.83 961.82 936.27 903.30 880.06 857.66 846.58 822.75 803.96 778.96 763.15 740.94 720.00 720.00 720.00 720.00 720.00 720.00 720.00 720.00 720.00 720.00 720.00 720.00 720.00 720.00 720.00 720.00 720.00 720.00 720.00 720.00 720.00 720.00 720.00 752.00 818.04 897.30 983.73 1066.44 1137.95 1207.32 1268.17 1322.19 1365.80 1400.91 1418.72 1447.02 1468.03 1496.80 1514.46 1523.25 1544.52 1568.35 1599.83 1634.92 1665.14 1686.31 1706.33 1741.42 1779.62 1813.15 1851.06 1874.78 1903.90 1934.86 1950.87 1964.81 1965.58 1981.60 2005.68 2027.34 2032.69 2032.64 2032.32 2028.86 2033.50 2038.87 2032.45 2023.39 2023.44 2031.80 2035.03 2044.11 2043.03 2052.71 2058.29 2050.94
855.33 879.13 901.22 922.62 936.72 961.72 979.59 988.99 968.55 965.76 967.05 972.08 974.60 957.71 923.49 908.99 887.73 885.04 863.58 832.03 800.99 779.38 764.92 744.35 720.00 720.00 720.00 720.00 720.00 720.00 720.00 720.00 720.00 720.00 720.00 720.00 720.00 720.00 720.00 720.00 720.00 720.00 720.00 720.00 720.00 720.00 720.00 747.02 816.81 903.95 984.13 1051.63 1109.59 1158.24 1207.91 1265.32 1320.06 1359.46 1380.29 1409.63 1444.04 1470.70 1490.71 1492.00 1515.44 1536.02 1576.91 1620.68 1643.76 1664.54 1688.10 1722.74 1759.16 1791.24 1807.08 1827.25 1849.76 1881.24 1910.10 1935.23 1949.81 1972.82 2007.54 2027.09 2043.47 2033.15 2024.67 2027.01 2048.10 2061.51 2064.04 2063.09 2059.29 2069.37 2082.34 2088.88 2081.03 2076.09 2070.27 2074.58
864.21 896.08 929.48 951.95 969.96 987.14 993.89 988.81 974.15 958.25 955.42 952.40 948.29 938.90 925.64 911.43 901.44 891.02 873.34 834.19 808.26 774.74 758.04 746.04 736.81 720.00 720.00 720.00 720.00 720.00 720.00 720.00 720.00 720.00 720.00 720.00 720.00 720.00 720.00 720.00 720.00 720.00 720.00 720.00 720.00 720.00 720.00 755.17 825.69 901.72 979.37 1034.37 1076.50 1118.23 1162.10 1217.65 1271.47 1314.52 1355.32 1385.65 1416.68 1441.97 1468.83 1473.50 1488.39 1518.91 1562.13 1599.61 1623.35 1652.60 1678.22 1707.40 1737.07 1758.76 1772.04 1782.32 1800.66 1834.16 1876.90 1908.71 1944.14 1976.64 2006.68 2027.47 2036.23 2032.43 2029.68 2036.93 2059.50 2079.01 2092.04 2106.96 2103.87 2120.27 2123.94 2126.05 2122.43 2100.58 2090.57 2082.87
877.15 914.99 948.39 983.53 997.80 1000.37 997.01 982.14 977.91 957.46 944.02 933.47 921.93 917.88 928.95 920.48 913.37 895.46 873.81 845.66 812.78 784.81 761.12 749.21 738.70 742.07 722.37 720.00 720.00 720.00 720.00 720.00 720.00 720.00 720.00 720.00 720.00 720.00 720.00 720.00 720.00 720.00 720.00 720.00 720.00 720.00 720.00 771.27 845.56 909.91 966.01 1009.04 1056.43 1094.78 1135.97 1178.52 1224.91 1279.68 1326.32 1370.48 1395.36 1416.44 1437.62 1466.21 1484.18 1517.28 1537.22 1562.91 1598.72 1632.72 1670.46 1689.71 1708.47 1722.86 1730.08 1744.71 1760.36 1789.91 1836.99 1882.30 1930.63 1971.02 1998.60 2012.86 2020.34 2032.31 2040.41 2053.90 2073.13 2089.31 2117.74 2138.88 2150.91 2163.13 2158.42 2159.43 2147.90 2137.93 2114.45 2085.17
894.43 927.00 963.20 1005.71 1018.86 1017.05 997.55 982.44 972.16 961.87 938.38 911.16 905.65 907.04 922.01 923.14 920.67 895.06 869.23 845.67 822.22 795.22 770.63 755.71 752.05 755.88 740.17 720.00 720.00 720.00 720.00 720.00 720.00 720.00 720.00 720.00 720.00 720.00 720.00 720.00 720.00 720.00 720.00 720.00 720.00 720.00 720.00 787.20 862.60 915.40 955.19 992.78 1038.36 1072.78 1110.02 1147.56 1186.96 1242.20 1297.79 1337.06 1372.52 1393.06 1422.76 1452.32 1479.47 1502.23 1512.68 1537.84 1580.12 1621.79 1658.55 1666.87 1675.21 1680.40 1697.79 1715.44 1734.55 1761.67 1796.88 1857.43 1911.05 1956.03 1984.51 1991.23 2012.04 2034.67 2061.72 2076.28 2089.39 2109.68 2137.87 2172.84 2199.89 2204.18 2195.86 2186.44 2179.82 2156.77 2127.29 2090.39
923.27 951.05 981.82 1007.61 1023.26 1017.94 1002.86 985.49 971.93 949.74 923.21 905.45 895.96 905.73 920.74 929.61 916.07 892.38 864.44 849.12 828.47 808.68 786.20 772.19 764.71 761.61 735.05 720.00 720.00 720.00 720.00 720.00 720.00 720.00 720.00 720.00 720.00 720.00 720.00 720.00 720.00 720.00 720.00 720.00 720.00 720.00 722.94 806.20 865.44 915.50 951.09 984.56 1021.71 1061.87 1100.78 1121.49 1164.36 1216.62 1267.32 1318.27 1350.29 1379.54 1409.05 1441.33 1469.47 1490.22 1502.36 1529.18 1563.76 1604.57 1628.33 1638.95 1644.90 1656.59 1666.51 1682.90 1709.09 1738.68 1773.87 1833.49 1884.89 1929.51 1959.05 1984.00 2005.42 2035.51 2071.72 2088.61 2110.57 2137.12 2169.07 2207.08 2232.08 2243.58 2227.77 2215.47 2195.84 2175.73 2141.50 2112.33
945.53 975.22 991.96 1003.25 1011.45 1010.43 1002.03 983.60 959.31 935.85 912.19 906.14 897.17 901.93 907.67 908.41 895.78 887.17 871.14 851.58 838.05 818.58 802.83 796.15 775.76 751.92 732.03 720.00 720.00 720.00 720.00 720.00 720.00 720.00 720.00 720.00 720.00 720.00 720.00 720.00 720.00 720.00 720.00 720.00 720.00 720.00 744.85 806.57 861.40 907.99 945.66 985.68 1017.46 1050.75 1080.16 1122.74 1153.63 1199.85 1243.58 1285.04 1331.13 1361.62 1402.86 1433.07 1454.91 1470.85 1496.45 1516.77 1550.92 1569.66 1596.64 1610.23 1615.22 1626.36 1637.34 1659.11 1685.11 1726.22 1761.31 1802.79 1848.81 1889.97 1932.27 1970.17 2014.65 2045.48 2077.89 2108.29 2140.64 2170.62 2201.31 2230.36 2245.37 2255.62 2256.19 2238.87 2214.38 2182.79 2155.08 2124.55
964.99 985.48 997.82 990.60 995.46 993.77 994.76 982.50 953.45 922.38 911.24 907.87 907.42 904.56 893.01 883.53 881.95 879.66 871.24 854.12 841.18 831.10 826.72 814.80 786.09 758.96 720.00 720.00 720.00 720.00 720.00 720.00 720.00 720.00 720.00 720.00 720.00 720.00 720.00 720.00 720.00 720.00 720.00 720.00 720.00 721.18 772.72 809.43 849.03 899.70 949.24 987.19 1015.67 1045.40 1078.41 1115.13 1148.79 1185.31 1213.70 1256.86 1307.20 1351.52 1392.79 1416.28 1435.80 1460.92 1488.17 1524.19 1537.53 1540.36 1550.22 1569.23 1590.32 1604.16 1621.78 1635.82 1670.92 1709.93 1751.62 1788.09 1818.34 1852.87 1903.51 1961.81 2012.54 2044.96 2081.62 2126.40 2164.51 2204.39 2232.80 2249.54 2259.95 2272.30 2274.62 2261.76 2225.79 2193.10 2172.01 2147.44
971.07 995.14 999.36 989.09 981.34 977.72 979.69 970.67 942.73 925.91 918.51 919.28 918.43 902.72 879.73 860.50 857.31 868.17 868.23 867.98 859.69 854.67 840.84 826.39 793.23 752.44 720.00 720.00 720.00 720.00 720.00 720.00 720.00 720.00 720.00 720.00 720.00 720.00 720.00 720.00 720.00 720.00 720.00 720.00 720.00 743.11 778.29 813.15 852.80 896.37 948.57 994.07 1023.48 1050.18 1072.55 1121.07 1152.55 1183.77 1201.25 1234.13 1285.69 1333.54 1373.65 1400.53 1421.68 1452.23 1487.97 1509.79 1516.05 1516.26 1519.50 1536.24 1559.67 1580.30 1606.91 1629.73 1664.46 1701.28 1736.04 1757.98 1782.53 1828.43 1880.69 1947.90 2007.49 2053.19 2095.91 2143.60 2196.34 2239.67 2260.13 2262.38 2269.73 2278.13 2275.30 2267.95 2237.99 2210.02 2189.72 2165.18
